!!!!SEGMENT: pl-cz--iii-351--004_koperski-maksymilian--missa-solemnis-ex-b-et-incarnatus.krn
!!!cenid: 18xx:903
!!!COM: Koperski, Maksymilian
!!!COM-rismid: pe30060120
!!!CDT: 1812-1886
!!!CNT:
!!!OPR: Missa Solemnis ex B
!!!OTL: Agnus Dei
!!!OMV: 008
!!!PDT: 1840
!!!AGN: Sacred; Mass
!!!SMS-siglum: PL-CZ
!!!SMS-shelfmark: III-351
!!!SMS-shelfwork: 001-008 M
!!!SMS-variant:
!!!SMS-altvar:
!!!NIFC-rismid: 300000600
!!!URL-scan: http://repozytorium.nifc.pl/skany/pl-cz-nut--iii-351
!!!ONB-nifc: UWAGA: części Mszy: Kyrie, Gloria, Credo, Et incarnatus, Et resurrexit, Sanctus, Benedictus, Agnus Dei
!!!AIN: 1 alto 1 bass 1 cello 2 clars 2 clrno 2 cor 1 fagot 1 organ 1 soprn 1 tenor 1 timpa 1 viola 2 violn
!!!key: g
**kern	**fba	**dynam	**kern	**dynam	**kern	**dynam	**kern	**dynam	**kern	**dynam	**kern	**text	**dynam	**kern	**text	**dynam	**kern	**text	**dynam	**kern	**text	**dynam	**kern	**kern	**kern	**kern	**kern	**kern	**dynam	**kern	**kern	**kern	**dynam
*part18	*part18	*part18	*part17	*part17	*part16	*part16	*part15	*part15	*part14	*part14	*part13	*part13	*part13	*part12	*part12	*part12	*part11	*part11	*part11	*part10	*part10	*part10	*part9	*part8	*part7	*part6	*part5	*part4	*part4	*part3	*part2	*part1	*part1
*staff18	*	*	*staff17	*	*staff16	*	*staff15	*	*staff14	*	*staff13	*staff13	*	*staff12	*staff12	*	*staff11	*staff11	*	*staff10	*staff10	*	*staff9	*staff8	*staff7	*staff6	*staff5	*staff4	*	*staff3	*staff2	*staff1	*
*I"Organ.	*	*	*I"Violone et Violoncello	*	*I"Alto Viola	*	*I"Violin 2do_	*	*I"Violin 1mo_	*	*I"Bas	*	*	*I"Tenor.	*	*	*I"Alt.	*	*	*I"Cant.	*	*	*I"Tympan B. F.	*I"Clarino 2do. in B.	*I"Clarino 1mo_in B.	*I"Corno 2do_in B.	*I"Corno 1mo in B.	*I"Fagotto	*	*I"Clarinetto 2do in B.	*I"Clarinetto 1mo in B.	*I"Flauto	*
*I'org	*	*	*I'vlne et vlc	*	*I'a-vla	*	*I'vl II	*	*I'vl I	*	*I'B	*	*	*I'T	*	*	*I'A	*	*	*I'S	*	*	*I'timp	*I'clno II	*I'clno I	*I'cor II	*I'cor I	*I'fag	*	*I'cl II	*I'cl I	*I'fl	*
*ICklav	*	*	*ICstr	*	*ICstr	*	*ICstr	*	*ICstr	*	*ICvox	*	*	*ICvox	*	*	*ICvox	*	*	*ICvox	*	*	*ICidio	*	*ICbras	*ICbras	*ICbras	*ICbras	*	*ICww	*ICww	*ICww	*ICww
*Iorgan	*	*	*Icello	*	*Iviola	*	*Ivioln	*	*Ivioln	*	*Ibass	*	*	*Itenor	*	*	*Ialto	*	*	*Isoprn	*	*	*Itimpa	*	*Iclrno	*Iclrno	*Icor	*Icor	*	*Ifagot	*Iclars	*Iclars	*Iflt
*clefF4	*	*	*clefF4	*	*clefC3	*	*clefG2	*	*clefG2	*	*clefF4	*	*	*clefC4	*	*	*clefC3	*	*	*clefC1	*	*	*clefF4	*clefG2	*clefG2	*clefG2	*clefG2	*clefF4	*	*clefG2	*clefG2	*clefG2	*
*	*	*	*	*	*	*	*	*	*	*	*	*	*	*	*	*	*	*	*	*	*	*	*	*ITrd1c2	*ITrd1c2	*ITrd1c2	*ITrd1c2	*	*	*ITrd1c2	*ITrd1c2	*	*
*k[b-e-]	*	*	*k[b-e-]	*	*k[b-e-]	*	*k[b-e-]	*	*k[b-e-]	*	*k[b-e-]	*	*	*k[b-e-]	*	*	*k[b-e-]	*	*	*k[b-e-]	*	*	*k[]	*k[b-e-]	*k[b-e-]	*k[b-e-]	*k[b-e-]	*k[b-e-]	*	*k[b-e-]	*k[b-e-]	*k[b-e-]	*
*g:	*	*	*g:	*	*g:	*	*g:	*	*g:	*	*g:	*	*	*g:	*	*	*g:	*	*	*g:	*	*	*	*	*	*	*	*g:	*	*	*	*g:	*
*M2/4	*	*	*M2/4	*	*M2/4	*	*M2/4	*	*M2/4	*	*M2/4	*	*	*M2/4	*	*	*M2/4	*	*	*M2/4	*	*	*M2/4	*M2/4	*M2/4	*M2/4	*M2/4	*M2/4	*	*M2/4	*M2/4	*M2/4	*
=1	=1	=1	=1	=1	=1	=1	=1	=1	=1	=1	=1	=1	=1	=1	=1	=1	=1	=1	=1	=1	=1	=1	=1	=1	=1	=1	=1	=1	=1	=1	=1	=1	=1
!!LO:TX:t=P:problem: all\right	!	!	!	!	!	!	!	!	!	!	!	!	!	!	!	!	!	!	!	!	!	!	!	!	!	!	!	!	!	!	!	!	!
! 	!	!	! 	!	! 	!	!	!	!	!	!LO:TX:a:i:t=Solo	!	!	!	!	!	!	!	!	!	!	!	!	!	!	!	!	! 	!	!LO:TX:a:t=40	!LO:TX:a:i:t=Dolce Solo	!LO:TX:a:t=16	!
!LO:TX:a:t=Et incar	!	!	!LO:TX:a:t=Et incarnatus	!	!LO:TX:a:t=Et incarnatus	!	!LO:TX:a:t=Et incarnatus	!	!LO:TX:a:t=Et incarnatus	!	!LO:TX:a:t=Et incarnatus	!	!	!LO:TX:a:t=Et incarnatus	!	!	!LO:TX:a:t=Et incarnatus	!	!	!LO:TX:a:t=Et incartus	!	!	!	!	!	!	!	!LO:TX:a:t=Et incarnatus	!	!LO:TX:a:t=Et incarnatus	!LO:TX:a:t=Et incarnatus	!LO:TX:a:t=Et incarnatus	!
!LO:TX:a:i:B:t=Adagio	!	!	!LO:TX:a:i:B:t=Adagio	!	!LO:TX:a:i:B:t=Adagio	!	!LO:TX:a:i:B:t=Adagio	!	!LO:TX:a:i:B:t=Adagio	!	!LO:TX:a:i:B:t=Adagio	!	!	!LO:TX:a:i:B:t=Adagio	!	!	!LO:TX:a:i:B:t=Adagio	!	!	!LO:TX:a:i:B:t=Adagio	!	!	!LO:TX:a:t=Etincarnatus Tacet	!LO:TX:a:t=Etincarnatus Tacet	!LO:TX:a:t=Etincarnatus Tacet	!LO:TX:a:t=Et incarnatus Tacet	!LO:TX:a:t=Et incarnatus Tacet	!LO:TX:a:i:B:t=adagio	!	!LO:TX:a:i:B:t=Adagio	!LO:TX:a:i:B:t=Adagio	!LO:TX:a:i:B:t=adagio	!
!	!	!	!	!	!	!	!	!	!	!LO:DY:b	!	!	!	!	!	!	!	!	!	!	!	!	!	!	!	!	!	!	!	!	!	!	!
!	!	!	!	!	!	!	!	!LO:DY:b	!	!	!	!	!	!	!	!	!	!	!	!	!	!	!	!	!	!	!	!	!	!	!	!	!
!	!	!	!	!	!	!LO:DY:b	!	!	!	!	!	!	!	!	!	!	!	!	!	!	!	!	!	!	!	!	!	!	!	!	!	!	!
!	!	!	!	!LO:DY:b	!	!	!	!	!	!	!	!	!	!	!	!	!	!	!	!	!	!	!	!	!	!	!	!	!	!	!	!	!
!	!	!LO:DY:b	!	!	!	!	!	!	!	!	!	!	!	!	!	!	!	!	!	!	!	!	!	!	!	!	!	!	!	!	!	!	!
4G\	.	f	4G\	f	4B-\ 4d	f	4d/	f	4g/	f	4G\	Et	.	2r	.	.	2r	.	.	2r	.	.	2ryy	2ryy	2ryy	2ryy	2ryy	4G\	f	2r	2r	2r	.
4r	.	.	4r	.	4r	.	4r	.	4r	.	8D\	in-	.	.	.	.	.	.	.	.	.	.	.	.	.	.	.	4r	.	.	.	.	.
.	.	.	.	.	.	.	.	.	.	.	8C\	-car-	.	.	.	.	.	.	.	.	.	.	.	.	.	.	.	.	.	.	.	.	.
=2	=2	=2	=2	=2	=2	=2	=2	=2	=2	=2	=2	=2	=2	=2	=2	=2	=2	=2	=2	=2	=2	=2	=2	=2	=2	=2	=2	=2	=2	=2	=2	=2	=2
!	!	!	!	!	!	!	!	!	!	!	! 	!	!	!LO:TX:a:i:t=Dolce	!	!	!LO:TX:a:i:t=Colu	!	!	!LO:TX:a:i:t=Dolce	!	!	!	!	!	!	!	!	!	!	!	!	!
2r	.	.	2r	.	2r	.	2r	.	2r	.	16.BB-/	-na-	.	4r	.	.	4r	.	.	4r	.	.	2ryy	2ryy	2ryy	2ryy	2ryy	2r	.	2r	2r	2r	.
.	.	.	.	.	.	.	.	.	.	.	32AA/	-tus	.	.	.	.	.	.	.	.	.	.	.	.	.	.	.	.	.	.	.	.	.
.	.	.	.	.	.	.	.	.	.	.	8GG/	est	.	.	.	.	.	.	.	.	.	.	.	.	.	.	.	.	.	.	.	.	.
.	.	.	.	.	.	.	.	.	.	.	4r	.	.	8r	.	.	8r	.	.	8r	.	.	.	.	.	.	.	.	.	.	.	.	.
!	!	!	!	!	!	!	!	!	!	!	!	!	!	!	!	!	!	!	!LO:DY:b	!	!	!	!	!	!	!	!	!	!	!	!	!	!
!	!	!	!	!	!	!	!	!	!	!	!	!	!	!	!	!LO:DY:b	!	!	!	!	!	!	!	!	!	!	!	!	!	!	!	!	!
.	.	.	.	.	.	.	.	.	.	.	.	.	.	8G/	de	p	8b-\	de	p	8dd\	de	.	.	.	.	.	.	.	.	.	.	.	.
=3	=3	=3	=3	=3	=3	=3	=3	=3	=3	=3	=3	=3	=3	=3	=3	=3	=3	=3	=3	=3	=3	=3	=3	=3	=3	=3	=3	=3	=3	=3	=3	=3	=3
! 	!	!	!LO:TX:a:i:t=pizzi	!	!LO:TX:a:i:t=pizzi	!	!LO:TX:a:i:t=pizzi	!	!LO:TX:a:i:t=pizzi	!	!LO:TX:a:t=2	!	!	!	!	!	! 	!	!	! 	!	!	!	!	!	!	!	!	!	!	!	!	!
!	!	!	!	!	!	!	!	!LO:DY:b	!	!	!	!	!	!	!	!	!	!	!	!	!	!	!	!	!	!	!	!	!	!	!	!	!
!	!	!	!	!LO:DY:b	!	!	!	!	!	!	!	!	!	!	!	!	!	!	!	!	!	!	!	!	!	!	!	!	!	!	!	!	!
!	!	!LO:DY:b	!	!	!	!	!	!	!	!	!	!	!	!	!	!	!	!	!	!	!	!	!	!	!	!	!	!	!	!	!	!	!
8G\L	.	p	8G\L	p	8r	.	8r	p	8r	.	2r	.	.	8G/L	spi-	.	4b-\	Spi-	.	4dd\	Spi-	.	2ryy	2ryy	2ryy	2ryy	2ryy	8r	.	2r	2r	2r	.
8BB-\	.	.	8BB-\	.	8G/L	.	8b-\L	.	8dd\L	.	.	.	.	8B-/J	.	.	.	.	.	.	.	.	.	.	.	.	.	8B-\L	p	.	.	.	.
8C\	.	.	8C\	.	8A/	.	8a\	.	8cc\	.	.	.	.	8c\	-ri-	.	8a\	-ri-	.	8cc\	-ri-	.	.	.	.	.	.	8c\	.	.	.	.	.
8C#X\J	5 3	.	8C#X\J	.	8B-/J	.	8g\J	.	8b-\J	.	.	.	.	8c#X\	-tu	.	8g\	-tu	.	8b-\	-tu	.	.	.	.	.	.	8c#X\J	.	.	.	.	.
!	!	!	!	!	!	!	!	!	!	!	!	!	!	!LO:LB:g=original	!	!	!	!	!	!	!	!	!	!	!	!	!	!	!	!	!	!	!
=4	=4	=4	=4	=4	=4	=4	=4	=4	=4	=4	=4	=4	=4	=4	=4	=4	=4	=4	=4	=4	=4	=4	=4	=4	=4	=4	=4	=4	=4	=4	=4	=4	=4
!	!	!	!	!	!	!	!	!	!	!	!	!	!	!LO:SIC:s=4c#	!	!	!	!	!	!	!	!	!	!	!	!	!	!	!	!	!	!	!
8r	.	.	8r	.	8r	.	8r	.	8r	.	2r	.	.	4c\	san-	.	4g\	san-	.	4b-\	san-	.	2ryy	2ryy	2ryy	2ryy	2ryy	8r	.	2r	2r	2r	.
8D\L	6 4	.	8D\L	.	8d\L	.	8g/L	.	8b-\L	.	.	.	.	.	.	.	.	.	.	.	.	.	.	.	.	.	.	8d\L	.	.	.	.	.
8D\J	5 #3	.	8D\J	.	8d\J	.	8f#X/J	.	8a\J	.	.	.	.	8d\	-cto	.	8f#X\	-cto	.	8a\	-cto	.	.	.	.	.	.	8D\J	.	.	.	.	.
8r	.	.	8r	.	8r	.	8r	.	8r	.	.	.	.	8r	.	.	8r	.	.	8r	.	.	.	.	.	.	.	8r	.	.	.	.	.
!	!	!	!	!	!	!	!	!	!	!	!	!	!	!	!	!	!LO:LB:g=original	!	!	!	!	!	!	!	!	!	!	!	!	!	!	!	!
=5	=5	=5	=5	=5	=5	=5	=5	=5	=5	=5	=5	=5	=5	=5	=5	=5	=5	=5	=5	=5	=5	=5	=5	=5	=5	=5	=5	=5	=5	=5	=5	=5	=5
!	!	!	!LO:TX:a:i:t=Color	!	!LO:TX:a:i:t=Color	!	!LO:TX:a:i:t=Colo	!	!LO:TX:a:i:t=Colu	!	!	!	!	!	!	!	!	!	!	!	!	!	!	!	!	!	!	!	!	!	!	!	!
4E-\	.	.	4E-\	.	4c\	.	4f#X/ 4a	.	4cc\	.	4c\	Et	.	2r	.	.	2r	.	.	2r	.	.	2ryy	2ryy	2ryy	2ryy	2ryy	4E-\	.	2r	2r	2r	.
4r	.	.	4r	.	4r	.	4r	.	4r	.	8A\	in-	.	.	.	.	.	.	.	.	.	.	.	.	.	.	.	4r	.	.	.	.	.
.	.	.	.	.	.	.	.	.	.	.	8G\	-car-	.	.	.	.	.	.	.	.	.	.	.	.	.	.	.	.	.	.	.	.	.
!	!	!	!LO:LB:g=original	!	!	!	!	!	!	!	!LO:LB:g=original	!	!	!	!	!	!	!	!	!LO:LB:g=original	!	!	!	!	!	!	!	!	!	!	!	!	!
=6	=6	=6	=6	=6	=6	=6	=6	=6	=6	=6	=6	=6	=6	=6	=6	=6	=6	=6	=6	=6	=6	=6	=6	=6	=6	=6	=6	=6	=6	=6	=6	=6	=6
2r	.	.	2r	.	2r	.	2r	.	2r	.	16F#X\	-na-	.	4r	.	.	4r	.	.	4r	.	.	2ryy	2ryy	2ryy	2ryy	2ryy	2r	.	2r	2r	2r	.
!	!	!	!	!	!	!	!	!	!	!	!LO:N:vis=32	!	!	!	!	!	!	!	!	!	!	!	!	!	!	!	!	!	!	!	!	!	!
.	.	.	.	.	.	.	.	.	.	.	16E-\	-tus	.	.	.	.	.	.	.	.	.	.	.	.	.	.	.	.	.	.	.	.	.
.	.	.	.	.	.	.	.	.	.	.	8D\	est	.	.	.	.	.	.	.	.	.	.	.	.	.	.	.	.	.	.	.	.	.
.	.	.	.	.	.	.	.	.	.	.	4r	.	.	8r	.	.	8r	.	.	8r	.	.	.	.	.	.	.	.	.	.	.	.	.
.	.	.	.	.	.	.	.	.	.	.	.	.	.	8f#X\	de	.	8cc\	de	.	8ee-\	de	.	.	.	.	.	.	.	.	.	.	.	.
!	!	!	!	!	!LO:LB:g=original	!	!	!	!	!	!	!	!	!	!	!	!	!	!	!	!	!	!	!	!	!	!	!	!	!	!	!	!
!	!	!	!	!	!	!	!	!	!	!	!	!	!	!	!	!	!	!	!	!	!	!	!	!	!	!	!	!LO:LB:g=original	!	!	!	!	!
=7	=7	=7	=7	=7	=7	=7	=7	=7	=7	=7	=7	=7	=7	=7	=7	=7	=7	=7	=7	=7	=7	=7	=7	=7	=7	=7	=7	=7	=7	=7	=7	=7	=7
!	!	!	!LO:TX:a:i:t=pizz	!	!LO:TX:a:i:t=pizzi	!	!LO:TX:a:i:t=pizzi	!	!LO:TX:a:i:t=pizzi	!	!LO:TX:a:t=3	!	!	!LO:SIC:s=4f#	!	!	!	!	!	!	!	!	!	!	!	!	!	!	!	!	!	!	!
8r	.	.	8r	.	8r	.	8r	.	8r	.	2r	.	.	4f\	spi-	.	4cc\	spi-	.	4ee-\	spi-	.	2ryy	2ryy	2ryy	2ryy	2ryy	8r	.	2r	2r	2r	.
8A\L	7 5	.	8A\L	.	8d\L	.	8cc\L	.	8ee-\L	.	.	.	.	.	.	.	.	.	.	.	.	.	.	.	.	.	.	8A\L	.	.	.	.	.
8B-\	3	.	8B-\	.	8en\	.	8b-\	.	8dd\	.	.	.	.	8g\	-ri-	.	8b-\	-ri-	.	8dd\	-ri-	.	.	.	.	.	.	8B-\	.	.	.	.	.
!	!	!	!	!	!	!	!	!	!	!	!	!	!	!LO:SIC:s=8f#	!	!	!	!	!	!	!	!	!	!	!	!	!	!	!	!	!	!	!
8F#X\J	5 3	.	8F#X\J	.	8f#X\J	.	8a\J	.	8cc\J	.	.	.	.	8f\	-tu	.	8a\	-tu	.	8cc\	-tu	.	.	.	.	.	.	8F#X\J	.	.	.	.	.
!LO:LB:g=original	!	!	!	!	!	!	!LO:LB:g=original	!	!LO:LB:g=original	!	!	!	!	!	!	!	!	!	!	!	!	!	!	!	!	!	!	!	!	!	!	!	!
=8	=8	=8	=8	=8	=8	=8	=8	=8	=8	=8	=8	=8	=8	=8	=8	=8	=8	=8	=8	=8	=8	=8	=8	=8	=8	=8	=8	=8	=8	=8	=8	=8	=8
8G\L	.	.	8G\L	.	8r	.	8r	.	8r	.	2r	.	.	8g\	san-	.	16.g\LL	san-	.	(16.b-\LL	san-	.	2ryy	2ryy	2ryy	2ryy	2ryy	8G\L	.	2r	2r	2r	.
.	.	.	.	.	.	.	.	.	.	.	.	.	.	.	.	.	32a\JJk	.	.	32cc\JJk)	.	.	.	.	.	.	.	.	.	.	.	.	.
8D\	.	.	8D\	.	16.g\LL	.	16.g/LL	.	16.b-\LL	.	.	.	.	8g\	-cto	.	8b-\	-cto	.	8dd\	-cto	.	.	.	.	.	.	8D\	.	.	.	.	.
!	!	!	!	!	! 	!	!	!	!LO:SIC:s=32cc	!	!	!	!	!	!	!	!	!	!	!	!	!	!	!	!	!	!	!	!	!	!	!	!
.	.	.	.	.	32d\JJk	.	32a/JJk	.	32dd\JJk	.	.	.	.	.	.	.	.	.	.	.	.	.	.	.	.	.	.	.	.	.	.	.	.
8GG/J	.	.	8GG\J	.	8G/	.	8b-/	.	8dd\	.	.	.	.	8r	.	.	4r	.	.	4r	.	.	.	.	.	.	.	8GG\J	.	.	.	.	.
!	!	!	!	!	!	!	!	!	!	!	!	!	!	!LO:TX:a:i:t=Solo	!	!	!	!	!	!	!	!	!	!	!	!	!	!	!	!	!	!	!
8r	.	.	8r	.	8r	.	8r	.	8r	.	.	.	.	8d\	ex	.	.	.	.	.	.	.	.	.	.	.	.	8r	.	.	.	.	.
=9	=9	=9	=9	=9	=9	=9	=9	=9	=9	=9	=9	=9	=9	=9	=9	=9	=9	=9	=9	=9	=9	=9	=9	=9	=9	=9	=9	=9	=9	=9	=9	=9	=9
!	!	!	!LO:TX:a:i:t=Color	!	!LO:TX:a:i:t=Color	!	!	!	!LO:TX:a:i:t=Colur	!	!	!	!	!	!	!	!	!	!	!	!	!	!	!	!	!	!	!	!	!	!	!	!
4GG/	3	.	4GG/	.	16r	.	16r	.	16r	.	2r	.	.	4g\	Ma-	.	2r	.	.	2r	.	.	2ryy	2ryy	2ryy	2ryy	2ryy	4G\	.	2r	2r	2r	.
.	.	.	.	.	16B-/LL	.	16G/LL 16d	.	16g/LL	.	.	.	.	.	.	.	.	.	.	.	.	.	.	.	.	.	.	.	.	.	.	.	.
.	.	.	.	.	16B-/	.	16G/ 16d	.	16g/	.	.	.	.	.	.	.	.	.	.	.	.	.	.	.	.	.	.	.	.	.	.	.	.
.	.	.	.	.	16B-/JJ	.	16G/JJ 16d	.	16g/JJ	.	.	.	.	.	.	.	.	.	.	.	.	.	.	.	.	.	.	.	.	.	.	.	.
*	*	*	*	*	*tremolo	*	*	*	*	*	*	*	*	*	*	*	*	*	*	*	*	*	*	*	*	*	*	*	*	*	*	*	*
*	*	*	*	*	*	*	*tremolo	*	*	*	*	*	*	*	*	*	*	*	*	*	*	*	*	*	*	*	*	*	*	*	*	*	*
*	*	*	*	*	*	*	*	*	*tremolo	*	*	*	*	*	*	*	*	*	*	*	*	*	*	*	*	*	*	*	*	*	*	*	*
4r	.	.	4r	.	16B-/LL	.	16G/ 16dLL	.	16g/LL	.	.	.	.	((32g\LLL	.	.	.	.	.	.	.	.	.	.	.	.	.	4r	.	.	.	.	.
.	.	.	.	.	.	.	.	.	.	.	.	.	.	32f\)	.	.	.	.	.	.	.	.	.	.	.	.	.	.	.	.	.	.	.
.	.	.	.	.	16B-/	.	16G/ 16d	.	16g/	.	.	.	.	(32e-\	.	.	.	.	.	.	.	.	.	.	.	.	.	.	.	.	.	.	.
.	.	.	.	.	.	.	.	.	.	.	.	.	.	32d\JJJ)	.	.	.	.	.	.	.	.	.	.	.	.	.	.	.	.	.	.	.
.	.	.	.	.	16B-/	.	16G/ 16d	.	16g/	.	.	.	.	32c\LLL	.	.	.	.	.	.	.	.	.	.	.	.	.	.	.	.	.	.	.
.	.	.	.	.	.	.	.	.	.	.	.	.	.	32B-\	.	.	.	.	.	.	.	.	.	.	.	.	.	.	.	.	.	.	.
.	.	.	.	.	16B-/JJ	.	16G/ 16dJJ	.	16g/JJ	.	.	.	.	32A\	.	.	.	.	.	.	.	.	.	.	.	.	.	.	.	.	.	.	.
.	.	.	.	.	.	.	.	.	.	.	.	.	.	32G\JJJ)	.	.	.	.	.	.	.	.	.	.	.	.	.	.	.	.	.	.	.
!	!	!	!	!	!	!	!	!	!	!	!	!	!	!LO:LB:g=original	!	!	!	!	!	!	!	!	!	!	!	!	!	!	!	!	!	!	!
=10	=10	=10	=10	=10	=10	=10	=10	=10	=10	=10	=10	=10	=10	=10	=10	=10	=10	=10	=10	=10	=10	=10	=10	=10	=10	=10	=10	=10	=10	=10	=10	=10	=10
*	*	*	*	*	*Xtremolo	*	*Xtremolo	*	*Xtremolo	*	*	*	*	*	*	*	*	*	*	*	*	*	*	*	*	*	*	*	*	*	*	*	*
!	!	!	!	!	!	!	!	!	!	!	!	!	!	!LO:TX:t=P:problem=mixed beam	!	!	!	!	!	!	!	!	!	!	!	!	!	!	!	!	!	!	!
4E-\	6	.	4E-\	.	16r	.	16r	.	16r	.	4r	.	.	16F#X/LL	-ri-	.	4r	.	.	4r	.	.	2ryy	2ryy	2ryy	2ryy	2ryy	4e-\	.	2r	2r	2r	.
.	.	.	.	.	16e-\LL	.	16c/LL 16e-	.	16f#X/LL	.	.	.	.	16e-\JJ	.	.	.	.	.	.	.	.	.	.	.	.	.	.	.	.	.	.	.
.	.	.	.	.	16e-\	.	16c/ 16e-	.	16f#/	.	.	.	.	4e-\	-a	.	.	.	.	.	.	.	.	.	.	.	.	.	.	.	.	.	.
.	.	.	.	.	16e-\JJ	.	16c/JJ 16e-	.	16f#/JJ	.	.	.	.	.	.	.	.	.	.	.	.	.	.	.	.	.	.	.	.	.	.	.	.
4r	.	.	4r	.	8e-\	.	8c/ 8e-	.	8f#/	.	8r	.	.	.	.	.	8r	.	.	8r	.	.	.	.	.	.	.	4r	.	.	.	.	.
.	.	.	.	.	8r	.	8r	.	8r	.	8F#X\	de	.	8r	.	.	8cc\	ex	.	8ee-\	ex	.	.	.	.	.	.	.	.	.	.	.	.
=11	=11	=11	=11	=11	=11	=11	=11	=11	=11	=11	=11	=11	=11	=11	=11	=11	=11	=11	=11	=11	=11	=11	=11	=11	=11	=11	=11	=11	=11	=11	=11	=11	=11
4D\	.	.	4D\	.	8r	.	8r	.	8r	.	4G\	Spi-	.	2r	.	.	4b-\	Ma-	.	4dd\	Ma-	.	2ryy	2ryy	2ryy	2ryy	2ryy	4d\	.	2r	2r	2r	.
.	.	.	.	.	8G/	.	8B-/	.	8d/	.	.	.	.	.	.	.	.	.	.	.	.	.	.	.	.	.	.	.	.	.	.	.	.
4r	.	.	4r	.	8r	.	8r	.	8r	.	8D\	-ri-	.	.	.	.	8a\	-ri-	.	8cc\	-ri-	.	.	.	.	.	.	4r	.	.	.	.	.
.	.	.	.	.	8F#X/	.	8A/	.	8c/	.	8D\	-tu	.	.	.	.	8a\	-a	.	8cc\	-a	.	.	.	.	.	.	.	.	.	.	.	.
=12	=12	=12	=12	=12	=12	=12	=12	=12	=12	=12	=12	=12	=12	=12	=12	=12	=12	=12	=12	=12	=12	=12	=12	=12	=12	=12	=12	=12	=12	=12	=12	=12	=12
8r	.	.	8r	.	8r	.	8r	.	8r	.	16.G\	San-	.	2r	.	.	16.g\	Vir-	.	16.b-\	Vir-	.	2ryy	2ryy	2ryy	2ryy	2ryy	8G\L	.	2r	2r	2r	.
.	.	.	.	.	.	.	.	.	.	.	32F#X\	.	.	.	.	.	32a\	-gi-	.	32cc\	-gi-	.	.	.	.	.	.	.	.	.	.	.	.
8G\L	.	.	8G\L	.	8G/L	.	16.G/LL	.	16.B-/LL	.	8G\	-cto	.	.	.	.	8b-\	-ne	.	8dd\	-ne	.	.	.	.	.	.	8D\	.	.	.	.	.
.	.	.	.	.	.	.	32A/JJk	.	32c/JJk	.	.	.	.	.	.	.	.	.	.	.	.	.	.	.	.	.	.	.	.	.	.	.	.
!	!	!	!	!	!	!	!	!	!	!	!	!	!	!	!	!	!	!	!	!LO:LB:g=original	!	!	!	!	!	!	!	!	!	!	!	!	!
8GG/J	.	.	8GG/J	.	8G/J	.	8B-/	.	8d/	.	4r	.	.	.	.	.	4r	.	.	8r	.	.	.	.	.	.	.	8GG\J	.	.	.	.	.
8r	.	.	8r	.	8r	.	8r	.	8r	.	.	.	.	.	.	.	.	.	.	8dd\	et	.	.	.	.	.	.	8r	.	.	.	.	.
!	!	!	!	!	!	!	!	!	!	!	!	!	!	!	!	!	!LO:LB:g=original	!	!	!	!	!	!	!	!	!	!	!	!	!	!	!	!
=13	=13	=13	=13	=13	=13	=13	=13	=13	=13	=13	=13	=13	=13	=13	=13	=13	=13	=13	=13	=13	=13	=13	=13	=13	=13	=13	=13	=13	=13	=13	=13	=13	=13
4G\	.	.	4G\	.	4G/	.	4B-/ 4d	.	4g/	.	2r	.	.	2r	.	.	2r	.	.	8gg\	ho-	.	2ryy	2ryy	2ryy	2ryy	2ryy	4G\	.	2r	2r	2r	.
.	.	.	.	.	.	.	.	.	.	.	.	.	.	.	.	.	.	.	.	8gg\	-mo	.	.	.	.	.	.	.	.	.	.	.	.
4r	.	.	4r	.	4r	.	4r	.	4r	.	.	.	.	.	.	.	.	.	.	32gg\LLL	fa-	.	.	.	.	.	.	4r	.	.	.	.	.
.	.	.	.	.	.	.	.	.	.	.	.	.	.	.	.	.	.	.	.	32aa\	.	.	.	.	.	.	.	.	.	.	.	.	.
.	.	.	.	.	.	.	.	.	.	.	.	.	.	.	.	.	.	.	.	32bb-\	.	.	.	.	.	.	.	.	.	.	.	.	.
.	.	.	.	.	.	.	.	.	.	.	.	.	.	.	.	.	.	.	.	32aa\JJJ	.	.	.	.	.	.	.	.	.	.	.	.	.
.	.	.	.	.	.	.	.	.	.	.	.	.	.	.	.	.	.	.	.	32gg\LLL	.	.	.	.	.	.	.	.	.	.	.	.	.
.	.	.	.	.	.	.	.	.	.	.	.	.	.	.	.	.	.	.	.	32ff\	.	.	.	.	.	.	.	.	.	.	.	.	.
.	.	.	.	.	.	.	.	.	.	.	.	.	.	.	.	.	.	.	.	32een\	.	.	.	.	.	.	.	.	.	.	.	.	.
.	.	.	.	.	.	.	.	.	.	.	.	.	.	.	.	.	.	.	.	32dd\JJJ	-ctus	.	.	.	.	.	.	.	.	.	.	.	.
!	!	!	!	!	!LO:LB:g=original	!	!	!	!	!	!	!	!	!	!	!	!	!	!	!	!	!	!	!	!	!	!	!	!	!	!	!	!
=14	=14	=14	=14	=14	=14	=14	=14	=14	=14	=14	=14	=14	=14	=14	=14	=14	=14	=14	=14	=14	=14	=14	=14	=14	=14	=14	=14	=14	=14	=14	=14	=14	=14
2r	.	.	2r	.	(8c#X\L	.	(8g/L	.	(8b-/L	.	2r	.	.	2r	.	.	2r	.	.	4cc#X\	est	.	2ryy	2ryy	2ryy	2ryy	2ryy	(8en\L	.	2r	(32gg\LLL	2r	.
.	.	.	.	.	.	.	.	.	.	.	.	.	.	.	.	.	.	.	.	.	.	.	.	.	.	.	.	.	.	.	32bb-\	.	.
.	.	.	.	.	.	.	.	.	.	.	.	.	.	.	.	.	.	.	.	.	.	.	.	.	.	.	.	.	.	.	32aa\	.	.
.	.	.	.	.	.	.	.	.	.	.	.	.	.	.	.	.	.	.	.	.	.	.	.	.	.	.	.	.	.	.	32gg\JJJ	.	.
.	.	.	.	.	8d\	.	8f#X/	.	8a/	.	.	.	.	.	.	.	.	.	.	.	.	.	.	.	.	.	.	8d\	.	.	32ff#X\LLL	.	.
!	!	!	!	!	!	!	!	!	!	!	!	!	!	!	!	!	!	!	!	!	!	!	!	!	!	!	!	!	!	!	!LO:SIC:s=32aa	!	!
.	.	.	.	.	.	.	.	.	.	.	.	.	.	.	.	.	.	.	.	.	.	.	.	.	.	.	.	.	.	.	32aa-X\	.	.
.	.	.	.	.	.	.	.	.	.	.	.	.	.	.	.	.	.	.	.	.	.	.	.	.	.	.	.	.	.	.	32dd\	.	.
.	.	.	.	.	.	.	.	.	.	.	.	.	.	.	.	.	.	.	.	.	.	.	.	.	.	.	.	.	.	.	32cc\JJJ)	.	.
.	.	.	.	.	8e-\	.	8fn/	.	8a-X/	.	.	.	.	.	.	.	.	.	.	4r	.	.	.	.	.	.	.	8Bn\	.	.	(32bX\LLL	.	.
.	.	.	.	.	.	.	.	.	.	.	.	.	.	.	.	.	.	.	.	.	.	.	.	.	.	.	.	.	.	.	32aa-X\	.	.
.	.	.	.	.	.	.	.	.	.	.	.	.	.	.	.	.	.	.	.	.	.	.	.	.	.	.	.	.	.	.	32gg\	.	.
.	.	.	.	.	.	.	.	.	.	.	.	.	.	.	.	.	.	.	.	.	.	.	.	.	.	.	.	.	.	.	32ff\JJJ	.	.
!	!	!	!	!	!LO:SIC:s=8cn	!	!	!	!	!	!	!	!	!	!	!	!	!	!	!	!	!	!	!	!	!	!	!	!	!	!	!	!
.	.	.	.	.	8c#\J)	.	8e-/J)	.	8g/J)	.	.	.	.	.	.	.	.	.	.	.	.	.	.	.	.	.	.	8c\J	.	.	32ee-\LLL	.	.
.	.	.	.	.	.	.	.	.	.	.	.	.	.	.	.	.	.	.	.	.	.	.	.	.	.	.	.	.	.	.	32gg\	.	.
.	.	.	.	.	.	.	.	.	.	.	.	.	.	.	.	.	.	.	.	.	.	.	.	.	.	.	.	.	.	.	32cc\	.	.
!	!	!	!	!	!	!	!	!	!	!	!	!	!	!	!	!	!	!	!	!	!	!	!	!	!	!	!	!	!	!	!LO:SIC:s=32b-	!	!
.	.	.	.	.	.	.	.	.	.	.	.	.	.	.	.	.	.	.	.	.	.	.	.	.	.	.	.	.	.	.	32b\JJJ)	.	.
!	!	!	!	!	!	!	!	!	!	!	!	!	!	!	!	!	!	!	!	!	!	!	!	!	!	!	!	!	!	!	!LO:LB:g=original	!	!
=15	=15	=15	=15	=15	=15	=15	=15	=15	=15	=15	=15	=15	=15	=15	=15	=15	=15	=15	=15	=15	=15	=15	=15	=15	=15	=15	=15	=15	=15	=15	=15	=15	=15
2r	.	.	2r	.	8c\L	.	(8e-/L	.	(8g-X/L	.	2r	.	.	2r	.	.	2r	.	.	2r	.	.	2ryy	2ryy	2ryy	2ryy	2ryy	8A\L	.	2r	(32a\LLL	2r	.
.	.	.	.	.	.	.	.	.	.	.	.	.	.	.	.	.	.	.	.	.	.	.	.	.	.	.	.	.	.	.	32gg-X\	.	.
.	.	.	.	.	.	.	.	.	.	.	.	.	.	.	.	.	.	.	.	.	.	.	.	.	.	.	.	.	.	.	32ff\	.	.
.	.	.	.	.	.	.	.	.	.	.	.	.	.	.	.	.	.	.	.	.	.	.	.	.	.	.	.	.	.	.	32ee-\JJJ	.	.
.	.	.	.	.	8B-\J	.	8d/J)	.	8f/J)	.	.	.	.	.	.	.	.	.	.	.	.	.	.	.	.	.	.	8B-X\J)	.	.	32dd\LLL	.	.
.	.	.	.	.	.	.	.	.	.	.	.	.	.	.	.	.	.	.	.	.	.	.	.	.	.	.	.	.	.	.	32ff\	.	.
.	.	.	.	.	.	.	.	.	.	.	.	.	.	.	.	.	.	.	.	.	.	.	.	.	.	.	.	.	.	.	32bb-\	.	.
.	.	.	.	.	.	.	.	.	.	.	.	.	.	.	.	.	.	.	.	.	.	.	.	.	.	.	.	.	.	.	32aa\JJJ)	.	.
.	.	.	.	.	4r	.	4r	.	4r	.	.	.	.	.	.	.	.	.	.	.	.	.	.	.	.	.	.	4r	.	.	(32gg\LLL	.	.
.	.	.	.	.	.	.	.	.	.	.	.	.	.	.	.	.	.	.	.	.	.	.	.	.	.	.	.	.	.	.	32ff'\	.	.
.	.	.	.	.	.	.	.	.	.	.	.	.	.	.	.	.	.	.	.	.	.	.	.	.	.	.	.	.	.	.	32ee-'\	.	.
.	.	.	.	.	.	.	.	.	.	.	.	.	.	.	.	.	.	.	.	.	.	.	.	.	.	.	.	.	.	.	32dd'\JJJ	.	.
.	.	.	.	.	.	.	.	.	.	.	.	.	.	.	.	.	.	.	.	.	.	.	.	.	.	.	.	.	.	.	32cc'\LLL	.	.
.	.	.	.	.	.	.	.	.	.	.	.	.	.	.	.	.	.	.	.	.	.	.	.	.	.	.	.	.	.	.	32b-'\	.	.
.	.	.	.	.	.	.	.	.	.	.	.	.	.	.	.	.	.	.	.	.	.	.	.	.	.	.	.	.	.	.	32a\	.	.
.	.	.	.	.	.	.	.	.	.	.	.	.	.	.	.	.	.	.	.	.	.	.	.	.	.	.	.	.	.	.	32g\JJJ	.	.
!	!	!	!	!	!	!	!LO:LB:g=original	!	!LO:LB:g=original	!	!	!	!	!	!	!	!	!	!	!	!	!	!	!	!	!	!	!	!	!	!	!	!
=16	=16	=16	=16	=16	=16	=16	=16	=16	=16	=16	=16	=16	=16	=16	=16	=16	=16	=16	=16	=16	=16	=16	=16	=16	=16	=16	=16	=16	=16	=16	=16	=16	=16
!	!	!	!	!	!	!	!	!	!	!	!	!	!	!	!	!	!	!	!	!	!	!	!	!	!	!	!	!LO:TX:a:i:t=Soli	!	!	!	!	!
8F\	.	.	8F\	.	16r	.	16r	.	16r	.	2r	.	.	2r	.	.	2r	.	.	2r	.	.	2ryy	2ryy	2ryy	2ryy	2ryy	4FF/	.	2r	4f/)	2r	.
.	.	.	.	.	16An/LL	.	16c/LL	.	16e-/LL	.	.	.	.	.	.	.	.	.	.	.	.	.	.	.	.	.	.	.	.	.	.	.	.
8r	.	.	8r	.	16A/	.	16c/	.	16e-/	.	.	.	.	.	.	.	.	.	.	.	.	.	.	.	.	.	.	.	.	.	.	.	.
.	.	.	.	.	16A/JJ	.	16c/JJ	.	16e-/JJ	.	.	.	.	.	.	.	.	.	.	.	.	.	.	.	.	.	.	.	.	.	.	.	.
*	*	*	*	*	*tremolo	*	*	*	*tremolo	*	*	*	*	*	*	*	*	*	*	*	*	*	*	*	*	*	*	*	*	*	*	*	*
8FF/	.	.	8FF/	.	16A/LL	.	16c/LL	.	16e-/LL	.	.	.	.	.	.	.	.	.	.	.	.	.	.	.	.	.	.	8F\	.	.	8ff\	.	.
.	.	.	.	.	16A/	.	16c/	.	16e-/	.	.	.	.	.	.	.	.	.	.	.	.	.	.	.	.	.	.	.	.	.	.	.	.
8r	.	.	8r	.	16A/	.	16c/	.	16e-/	.	.	.	.	.	.	.	.	.	.	.	.	.	.	.	.	.	.	8r	.	.	8r	.	.
.	.	.	.	.	16A/JJ	.	16c/JJ	.	16e-/JJ	.	.	.	.	.	.	.	.	.	.	.	.	.	.	.	.	.	.	.	.	.	.	.	.
*	*	*	*	*	*Xtremolo	*	*	*	*Xtremolo	*	*	*	*	*	*	*	*	*	*	*	*	*	*	*	*	*	*	*	*	*	*	*	*
!	!	!	!LO:LB:g=original	!	!	!	!	!	!	!	!	!	!	!	!	!	!	!	!	!	!	!	!	!	!	!	!	!	!	!	!	!	!
=17	=17	=17	=17	=17	=17	=17	=17	=17	=17	=17	=17	=17	=17	=17	=17	=17	=17	=17	=17	=17	=17	=17	=17	=17	=17	=17	=17	=17	=17	=17	=17	=17	=17
!	!	!	!	!	!	!	!	!	!	!	!	!	!	!	!	!	!	!	!	!	!	!	!	!	!	!	!	!	!	!	!	!LO:TX:a:i:t=Solo	!
8F\	.	.	8F\	.	16r	.	16r	.	16r	.	2r	.	.	2r	.	.	2r	.	.	2r	.	.	2ryy	2ryy	2ryy	2ryy	2ryy	4F\	.	2r	2r	(4ff\	p
.	.	.	.	.	16F/LL	.	16B-/LL	.	16d/LL	.	.	.	.	.	.	.	.	.	.	.	.	.	.	.	.	.	.	.	.	.	.	.	.
8r	.	.	8r	.	16F/	.	16B-/	.	16d/	.	.	.	.	.	.	.	.	.	.	.	.	.	.	.	.	.	.	.	.	.	.	.	.
.	.	.	.	.	16F/JJ	.	16B-/JJ	.	16d/JJ	.	.	.	.	.	.	.	.	.	.	.	.	.	.	.	.	.	.	.	.	.	.	.	.
*	*	*	*	*	*tremolo	*	*	*	*tremolo	*	*	*	*	*	*	*	*	*	*	*	*	*	*	*	*	*	*	*	*	*	*	*	*
8FF/	.	.	8FF/	.	16F/LL	.	16B-/LL	.	16d/LL	.	.	.	.	.	.	.	.	.	.	.	.	.	.	.	.	.	.	8f\	.	.	.	8fff\)	.
.	.	.	.	.	16F/	.	16B-/	.	16d/	.	.	.	.	.	.	.	.	.	.	.	.	.	.	.	.	.	.	.	.	.	.	.	.
8r	.	.	8r	.	16F/	.	16B-/	.	16d/	.	.	.	.	.	.	.	.	.	.	.	.	.	.	.	.	.	.	8r	.	.	.	8r	.
.	.	.	.	.	16F/JJ	.	16B-/JJ	.	16d/JJ	.	.	.	.	.	.	.	.	.	.	.	.	.	.	.	.	.	.	.	.	.	.	.	.
*	*	*	*	*	*Xtremolo	*	*	*	*Xtremolo	*	*	*	*	*	*	*	*	*	*	*	*	*	*	*	*	*	*	*	*	*	*	*	*
=18	=18	=18	=18	=18	=18	=18	=18	=18	=18	=18	=18	=18	=18	=18	=18	=18	=18	=18	=18	=18	=18	=18	=18	=18	=18	=18	=18	=18	=18	=18	=18	=18	=18
4F#X\	.	.	4G-X\	.	4e-\	.	4c/	.	4A/ 4f#X	.	2r	.	.	2r	.	.	2r	.	.	2r	.	.	2ryy	2ryy	2ryy	2ryy	2ryy	4f#X\	.	2r	32r	2r	.
.	.	.	.	.	.	.	.	.	.	.	.	.	.	.	.	.	.	.	.	.	.	.	.	.	.	.	.	.	.	.	(32f#X\LLL	.	.
.	.	.	.	.	.	.	.	.	.	.	.	.	.	.	.	.	.	.	.	.	.	.	.	.	.	.	.	.	.	.	32a\	.	.
.	.	.	.	.	.	.	.	.	.	.	.	.	.	.	.	.	.	.	.	.	.	.	.	.	.	.	.	.	.	.	32cc\JJJ	.	.
.	.	.	.	.	.	.	.	.	.	.	.	.	.	.	.	.	.	.	.	.	.	.	.	.	.	.	.	.	.	.	32ee-\LLL	.	.
.	.	.	.	.	.	.	.	.	.	.	.	.	.	.	.	.	.	.	.	.	.	.	.	.	.	.	.	.	.	.	32ff#X\	.	.
.	.	.	.	.	.	.	.	.	.	.	.	.	.	.	.	.	.	.	.	.	.	.	.	.	.	.	.	.	.	.	32aa\	.	.
.	.	.	.	.	.	.	.	.	.	.	.	.	.	.	.	.	.	.	.	.	.	.	.	.	.	.	.	.	.	.	32ccc\JJJ)	.	.
4r	.	.	4r	.	4r	.	4r	.	4r	.	.	.	.	.	.	.	.	.	.	.	.	.	.	.	.	.	.	4r	.	.	(32eee-\LLL	.	.
.	.	.	.	.	.	.	.	.	.	.	.	.	.	.	.	.	.	.	.	.	.	.	.	.	.	.	.	.	.	.	32ddd\	.	.
.	.	.	.	.	.	.	.	.	.	.	.	.	.	.	.	.	.	.	.	.	.	.	.	.	.	.	.	.	.	.	32ccc\	.	.
.	.	.	.	.	.	.	.	.	.	.	.	.	.	.	.	.	.	.	.	.	.	.	.	.	.	.	.	.	.	.	32bb-\JJJ	.	.
.	.	.	.	.	.	.	.	.	.	.	.	.	.	.	.	.	.	.	.	.	.	.	.	.	.	.	.	.	.	.	32aa\LLL	.	.
.	.	.	.	.	.	.	.	.	.	.	.	.	.	.	.	.	.	.	.	.	.	.	.	.	.	.	.	.	.	.	32gg\	.	.
.	.	.	.	.	.	.	.	.	.	.	.	.	.	.	.	.	.	.	.	.	.	.	.	.	.	.	.	.	.	.	32ff#X\	.	.
.	.	.	.	.	.	.	.	.	.	.	.	.	.	.	.	.	.	.	.	.	.	.	.	.	.	.	.	.	.	.	32ddd\JJJ)	.	.
!	!	!	!	!	!	!	!	!	!	!	!	!	!	!	!	!	!	!	!	!	!	!	!	!	!	!	!	!LO:LB:g=original	!	!	!LO:LB:g=original	!	!
=19	=19	=19	=19	=19	=19	=19	=19	=19	=19	=19	=19	=19	=19	=19	=19	=19	=19	=19	=19	=19	=19	=19	=19	=19	=19	=19	=19	=19	=19	=19	=19	=19	=19
8G\	.	.	8Gn\	.	8B-/	.	8r	.	8r	.	2r	.	.	2r	.	.	2r	.	.	2r	.	.	2ryy	2ryy	2ryy	2ryy	2ryy	8G\	.	2r	(32ff#X\LLL	2r	.
.	.	.	.	.	.	.	.	.	.	.	.	.	.	.	.	.	.	.	.	.	.	.	.	.	.	.	.	.	.	.	32gg\	.	.
.	.	.	.	.	.	.	.	.	.	.	.	.	.	.	.	.	.	.	.	.	.	.	.	.	.	.	.	.	.	.	32bb-\	.	.
.	.	.	.	.	.	.	.	.	.	.	.	.	.	.	.	.	.	.	.	.	.	.	.	.	.	.	.	.	.	.	32aa\JJJ	.	.
8r	.	.	8r	.	8r	.	8d/	.	8g/	.	.	.	.	.	.	.	.	.	.	.	.	.	.	.	.	.	.	8r	.	.	32gg\LLL	.	.
.	.	.	.	.	.	.	.	.	.	.	.	.	.	.	.	.	.	.	.	.	.	.	.	.	.	.	.	.	.	.	32ff\	.	.
.	.	.	.	.	.	.	.	.	.	.	.	.	.	.	.	.	.	.	.	.	.	.	.	.	.	.	.	.	.	.	32ee-\)	.	.
.	.	.	.	.	.	.	.	.	.	.	.	.	.	.	.	.	.	.	.	.	.	.	.	.	.	.	.	.	.	.	32dd\JJJ	.	.
8E-\	.	.	8E-\	.	8G/	.	8r	.	8r	.	.	.	.	.	.	.	.	.	.	.	.	.	.	.	.	.	.	8E-\	.	.	(32cc\LLL	.	.
.	.	.	.	.	.	.	.	.	.	.	.	.	.	.	.	.	.	.	.	.	.	.	.	.	.	.	.	.	.	.	32ee-\	.	.
.	.	.	.	.	.	.	.	.	.	.	.	.	.	.	.	.	.	.	.	.	.	.	.	.	.	.	.	.	.	.	32aa-X\	.	.
.	.	.	.	.	.	.	.	.	.	.	.	.	.	.	.	.	.	.	.	.	.	.	.	.	.	.	.	.	.	.	32gg\JJJ	.	.
8r	.	.	8r	.	8r	.	8c/	.	8e-/	.	.	.	.	.	.	.	.	.	.	.	.	.	.	.	.	.	.	8r	.	.	32ff\LLL	.	.
.	.	.	.	.	.	.	.	.	.	.	.	.	.	.	.	.	.	.	.	.	.	.	.	.	.	.	.	.	.	.	32ee-\	.	.
.	.	.	.	.	.	.	.	.	.	.	.	.	.	.	.	.	.	.	.	.	.	.	.	.	.	.	.	.	.	.	32dd\	.	.
.	.	.	.	.	.	.	.	.	.	.	.	.	.	.	.	.	.	.	.	.	.	.	.	.	.	.	.	.	.	.	32cc\JJJ)	.	.
=20	=20	=20	=20	=20	=20	=20	=20	=20	=20	=20	=20	=20	=20	=20	=20	=20	=20	=20	=20	=20	=20	=20	=20	=20	=20	=20	=20	=20	=20	=20	=20	=20	=20
8BB-/	.	.	8BB-/	.	8r	.	8r	.	8r	.	2r	.	.	2r	.	.	2r	.	.	2r	.	.	2ryy	2ryy	2ryy	2ryy	2ryy	8BB-/	.	2r	8ff\	2r	.
8r	.	.	8r	.	8B-/L	.	(16B-/LL	.	(16d/LL	.	.	.	.	.	.	.	.	.	.	.	.	.	.	.	.	.	.	8r	.	.	4b-T\	.	.
.	.	.	.	.	.	.	16d/JJ)	.	16f/JJ)	.	.	.	.	.	.	.	.	.	.	.	.	.	.	.	.	.	.	.	.	.	.	.	.
8F\	.	.	8F\	.	8f/	.	16B-/LL	.	(16d/LL	.	.	.	.	.	.	.	.	.	.	.	.	.	.	.	.	.	.	8F\	.	.	.	.	.
.	.	.	.	.	.	.	16d/	.	16f/)	.	.	.	.	.	.	.	.	.	.	.	.	.	.	.	.	.	.	.	.	.	.	.	.
8r	.	.	8r	.	8f/J	.	16c/	.	(16d/	.	.	.	.	.	.	.	.	.	.	.	.	.	.	.	.	.	.	8r	.	.	16dd\LL	.	.
.	.	.	.	.	.	.	16e-/JJ	.	16f/JJ)	.	.	.	.	.	.	.	.	.	.	.	.	.	.	.	.	.	.	.	.	.	16cc\JJ	.	.
!LO:LB:g=original	!	!	!	!	!	!	!	!	!	!	!	!	!	!	!	!	!	!	!	!	!	!	!	!	!	!	!	!	!	!	!	!	!
=21	=21	=21	=21	=21	=21	=21	=21	=21	=21	=21	=21	=21	=21	=21	=21	=21	=21	=21	=21	=21	=21	=21	=21	=21	=21	=21	=21	=21	=21	=21	=21	=21	=21
4BB-/	.	.	4BB-/	.	4B-/	.	4d/	.	(16B-/LL	.	2r	.	.	2r	.	.	2r	.	.	2r	.	.	2ryy	2ryy	2ryy	2ryy	2ryy	4BB-/	.	2r	4b-\	2r	.
.	.	.	.	.	.	.	.	.	16d/	.	.	.	.	.	.	.	.	.	.	.	.	.	.	.	.	.	.	.	.	.	.	.	.
.	.	.	.	.	.	.	.	.	16f/	.	.	.	.	.	.	.	.	.	.	.	.	.	.	.	.	.	.	.	.	.	.	.	.
.	.	.	.	.	.	.	.	.	16d/JJ)	.	.	.	.	.	.	.	.	.	.	.	.	.	.	.	.	.	.	.	.	.	.	.	.
*	*	*	*	*	*	*	*	*	*rep	*	*	*	*	*	*	*	*	*	*	*	*	*	*	*	*	*	*	*	*	*	*	*	*
4r	.	.	4r	.	4r	.	4r	.	(16B-/LL	.	.	.	.	.	.	.	.	.	.	.	.	.	.	.	.	.	.	4r	.	.	32r	.	.
.	.	.	.	.	.	.	.	.	.	.	.	.	.	.	.	.	.	.	.	.	.	.	.	.	.	.	.	.	.	.	(32b-\LLL	.	.
.	.	.	.	.	.	.	.	.	16d/	.	.	.	.	.	.	.	.	.	.	.	.	.	.	.	.	.	.	.	.	.	32cc\	.	.
.	.	.	.	.	.	.	.	.	.	.	.	.	.	.	.	.	.	.	.	.	.	.	.	.	.	.	.	.	.	.	32dd\JJJ	.	.
.	.	.	.	.	.	.	.	.	16f/	.	.	.	.	.	.	.	.	.	.	.	.	.	.	.	.	.	.	.	.	.	32ee-\LLL	.	.
.	.	.	.	.	.	.	.	.	.	.	.	.	.	.	.	.	.	.	.	.	.	.	.	.	.	.	.	.	.	.	32ff\	.	.
.	.	.	.	.	.	.	.	.	16d/JJ)	.	.	.	.	.	.	.	.	.	.	.	.	.	.	.	.	.	.	.	.	.	32gg\	.	.
.	.	.	.	.	.	.	.	.	.	.	.	.	.	.	.	.	.	.	.	.	.	.	.	.	.	.	.	.	.	.	32aa\JJJ)	.	.
*	*	*	*	*	*	*	*	*	*Xrep	*	*	*	*	*	*	*	*	*	*	*	*	*	*	*	*	*	*	*	*	*	*	*	*
!	!	!	!	!	!LO:LB:g=original	!	!	!	!	!	!	!	!	!	!	!	!	!	!	!	!	!	!	!	!	!	!	!	!	!	!	!	!
=22	=22	=22	=22	=22	=22	=22	=22	=22	=22	=22	=22	=22	=22	=22	=22	=22	=22	=22	=22	=22	=22	=22	=22	=22	=22	=22	=22	=22	=22	=22	=22	=22	=22
!	!	!	!LO:TX:a:i:t=pizzi	!	!	!	!	!	!	!	!	!	!	!	!	!	!	!	!	!	!	!	!	!	!	!	!	!	!	!	!LO:N:vis=4..	!	!
!	!	!LO:DY:b	!	!	!	!	!	!	!	!	!	!	!	!	!	!	!	!	!	!	!	!	!	!	!	!	!	!	!	!	!	!	!
8E-\	.	p	8E-\	.	8e-\	.	8G/	.	(<16B-/LL	.	2r	.	.	2r	.	.	2r	.	.	2r	.	.	2ryy	2ryy	2ryy	2ryy	2ryy	8E-\	p	2r	4bb-T\	2r	.
.	.	.	.	.	.	.	.	.	16e-/	.	.	.	.	.	.	.	.	.	.	.	.	.	.	.	.	.	.	.	.	.	.	.	.
8r	.	.	8r	.	8r	.	8r	.	16g/	.	.	.	.	.	.	.	.	.	.	.	.	.	.	.	.	.	.	8r	.	.	.	.	.
.	.	.	.	.	.	.	.	.	16e-/JJ)	.	.	.	.	.	.	.	.	.	.	.	.	.	.	.	.	.	.	.	.	.	.	.	.
*	*	*	*	*	*	*	*	*	*rep	*	*	*	*	*	*	*	*	*	*	*	*	*	*	*	*	*	*	*	*	*	*	*	*
4r	.	.	4r	.	8e-\	.	8G/	.	(16B-/LL	.	.	.	.	.	.	.	.	.	.	.	.	.	.	.	.	.	.	8E-\	.	.	16ryy	.	.
.	.	.	.	.	.	.	.	.	16e-/	.	.	.	.	.	.	.	.	.	.	.	.	.	.	.	.	.	.	.	.	.	(32aa\LLL	.	.
.	.	.	.	.	.	.	.	.	.	.	.	.	.	.	.	.	.	.	.	.	.	.	.	.	.	.	.	.	.	.	32bb-\JJJ	.	.
.	.	.	.	.	8r	.	8r	.	16g/	.	.	.	.	.	.	.	.	.	.	.	.	.	.	.	.	.	.	8r	.	.	32ccc\LLL	.	.
.	.	.	.	.	.	.	.	.	.	.	.	.	.	.	.	.	.	.	.	.	.	.	.	.	.	.	.	.	.	.	32bb-\	.	.
.	.	.	.	.	.	.	.	.	16e-/JJ)	.	.	.	.	.	.	.	.	.	.	.	.	.	.	.	.	.	.	.	.	.	32aa\	.	.
.	.	.	.	.	.	.	.	.	.	.	.	.	.	.	.	.	.	.	.	.	.	.	.	.	.	.	.	.	.	.	32gg\JJJ)	.	.
*	*	*	*	*	*	*	*	*	*Xrep	*	*	*	*	*	*	*	*	*	*	*	*	*	*	*	*	*	*	*	*	*	*	*	*
!	!	!	!	!	!	!	!	!	!LO:LB:g=original	!	!	!	!	!	!	!	!	!	!	!	!	!	!	!	!	!	!	!	!	!	!LO:LB:g=original	!	!
=23	=23	=23	=23	=23	=23	=23	=23	=23	=23	=23	=23	=23	=23	=23	=23	=23	=23	=23	=23	=23	=23	=23	=23	=23	=23	=23	=23	=23	=23	=23	=23	=23	=23
8BB-/	.	.	8BB-/	.	8f\	.	8d/	.	16B-/LL	.	2r	.	.	2r	.	.	2r	.	.	2r	.	.	2ryy	2ryy	2ryy	2ryy	2ryy	4BB-/	.	2r	16.ff\LL	2r	.
.	.	.	.	.	.	.	.	.	16d/	.	.	.	.	.	.	.	.	.	.	.	.	.	.	.	.	.	.	.	.	.	.	.	.
.	.	.	.	.	.	.	.	.	.	.	.	.	.	.	.	.	.	.	.	.	.	.	.	.	.	.	.	.	.	.	32dd\JJk	.	.
8r	.	.	8r	.	8r	.	8r	.	16f/	.	.	.	.	.	.	.	.	.	.	.	.	.	.	.	.	.	.	.	.	.	8b-\	.	.
.	.	.	.	.	.	.	.	.	16d/JJ	.	.	.	.	.	.	.	.	.	.	.	.	.	.	.	.	.	.	.	.	.	.	.	.
4r	.	.	4r	.	4r	.	4r	.	8B-/	.	.	.	.	.	.	.	.	.	.	.	.	.	.	.	.	.	.	16r	.	.	16r	.	.
.	.	.	.	.	.	.	.	.	.	.	.	.	.	.	.	.	.	.	.	.	.	.	.	.	.	.	.	16B-\LL	.	.	(16b-\LL	.	.
.	.	.	.	.	.	.	.	.	8r	.	.	.	.	.	.	.	.	.	.	.	.	.	.	.	.	.	.	16c\	.	.	16cc\	.	.
.	.	.	.	.	.	.	.	.	.	.	.	.	.	.	.	.	.	.	.	.	.	.	.	.	.	.	.	16d\JJ	.	.	16dd\JJ	.	.
!	!	!	!	!	!	!	!LO:LB:g=original	!	!	!	!	!	!	!	!	!	!	!	!	!	!	!	!	!	!	!	!	!	!	!	!	!	!
=24	=24	=24	=24	=24	=24	=24	=24	=24	=24	=24	=24	=24	=24	=24	=24	=24	=24	=24	=24	=24	=24	=24	=24	=24	=24	=24	=24	=24	=24	=24	=24	=24	=24
8F\	.	.	8F\	.	16r	.	16r	.	16r	.	2r	.	.	4e-\	ex	.	2r	.	.	2r	.	.	2ryy	2ryy	2ryy	2ryy	2ryy	8e-\	.	2r	4ee-\)	2r	.
.	.	.	.	.	16An/LL	.	16c/LL	.	16e-/LL	.	.	.	.	.	.	.	.	.	.	.	.	.	.	.	.	.	.	.	.	.	.	.	.
8r	.	.	8r	.	16A/	.	16c/	.	16e-/	.	.	.	.	.	.	.	.	.	.	.	.	.	.	.	.	.	.	8r	.	.	.	.	.
.	.	.	.	.	16A/JJ	.	16c/JJ	.	16e-/JJ	.	.	.	.	.	.	.	.	.	.	.	.	.	.	.	.	.	.	.	.	.	.	.	.
4r	.	.	4r	.	8A/	.	8c/	.	8e-/	.	.	.	.	32e-\LLL	Ma-	.	.	.	.	.	.	.	.	.	.	.	.	8F\	.	.	4r	.	.
.	.	.	.	.	.	.	.	.	.	.	.	.	.	32d\	.	.	.	.	.	.	.	.	.	.	.	.	.	.	.	.	.	.	.
.	.	.	.	.	.	.	.	.	.	.	.	.	.	32c\	.	.	.	.	.	.	.	.	.	.	.	.	.	.	.	.	.	.	.
.	.	.	.	.	.	.	.	.	.	.	.	.	.	32B-\JJJ	.	.	.	.	.	.	.	.	.	.	.	.	.	.	.	.	.	.	.
.	.	.	.	.	8r	.	8r	.	8r	.	.	.	.	32A\LLL	.	.	.	.	.	.	.	.	.	.	.	.	.	8r	.	.	.	.	.
.	.	.	.	.	.	.	.	.	.	.	.	.	.	32c\	.	.	.	.	.	.	.	.	.	.	.	.	.	.	.	.	.	.	.
.	.	.	.	.	.	.	.	.	.	.	.	.	.	32g\	.	.	.	.	.	.	.	.	.	.	.	.	.	.	.	.	.	.	.
.	.	.	.	.	.	.	.	.	.	.	.	.	.	32f\JJJ	.	.	.	.	.	.	.	.	.	.	.	.	.	.	.	.	.	.	.
=25	=25	=25	=25	=25	=25	=25	=25	=25	=25	=25	=25	=25	=25	=25	=25	=25	=25	=25	=25	=25	=25	=25	=25	=25	=25	=25	=25	=25	=25	=25	=25	=25	=25
!	!	!	!	!	!	!	!	!	!	!	!	!	!	!	!	!	!	!	!	!	!	!	!	!	!	!	!	!LO:TX:t=P:problem=mixed beam	!	!	!	!	!
8r	.	.	8r	.	16r	.	16r	.	16r	.	2r	.	.	16c\LL	-ri-	.	2r	.	.	2r	.	.	2ryy	2ryy	2ryy	2ryy	2ryy	8B-\L	.	2r	4r	2r	.
.	.	.	.	.	16F/LL	.	16B-/LL	.	16d/LL	.	.	.	.	16c#X\JJ	.	.	.	.	.	.	.	.	.	.	.	.	.	.	.	.	.	.	.
8B-\L	.	.	8BB-/L	.	16F/	.	16B-/	.	16d/	.	.	.	.	8d\	-a	.	.	.	.	.	.	.	.	.	.	.	.	8BB-/	.	.	.	.	.
.	.	.	.	.	16F/JJ	.	16B-/JJ	.	16d/JJ	.	.	.	.	.	.	.	.	.	.	.	.	.	.	.	.	.	.	.	.	.	.	.	.
8BB-/J	.	.	8BB-/J	.	8F/	.	8B-/	.	8d/	.	.	.	.	4r	.	.	.	.	.	.	.	.	.	.	.	.	.	8B-\J	.	.	32r	.	.
.	.	.	.	.	.	.	.	.	.	.	.	.	.	.	.	.	.	.	.	.	.	.	.	.	.	.	.	.	.	.	32b-\LLL	.	.
.	.	.	.	.	.	.	.	.	.	.	.	.	.	.	.	.	.	.	.	.	.	.	.	.	.	.	.	.	.	.	32cc\	.	.
.	.	.	.	.	.	.	.	.	.	.	.	.	.	.	.	.	.	.	.	.	.	.	.	.	.	.	.	.	.	.	32dd\JJJ	.	.
8r	.	.	8r	.	8r	.	8r	.	8r	.	.	.	.	.	.	.	.	.	.	.	.	.	.	.	.	.	.	8r	.	.	32ee-\LLL	.	.
.	.	.	.	.	.	.	.	.	.	.	.	.	.	.	.	.	.	.	.	.	.	.	.	.	.	.	.	.	.	.	32ff\	.	.
.	.	.	.	.	.	.	.	.	.	.	.	.	.	.	.	.	.	.	.	.	.	.	.	.	.	.	.	.	.	.	32gg\	.	.
.	.	.	.	.	.	.	.	.	.	.	.	.	.	.	.	.	.	.	.	.	.	.	.	.	.	.	.	.	.	.	32aa\JJJ	.	.
=26	=26	=26	=26	=26	=26	=26	=26	=26	=26	=26	=26	=26	=26	=26	=26	=26	=26	=26	=26	=26	=26	=26	=26	=26	=26	=26	=26	=26	=26	=26	=26	=26	=26
8E-\	.	.	8E-\	.	8e-\	.	8G/	.	(16B-/LL	.	2r	.	.	2r	.	.	2r	.	.	2r	.	.	2ryy	2ryy	2ryy	2ryy	2ryy	8E-\	.	2r	8bb-\L	2r	.
.	.	.	.	.	.	.	.	.	16e-/	.	.	.	.	.	.	.	.	.	.	.	.	.	.	.	.	.	.	.	.	.	.	.	.
!	!	!	!	!	!	!	!	!	!	!	!	!	!	!	!	!	!	!	!	!	!	!	!	!	!	!	!	!	!	!	!LO:N:vis=8..	!	!
8r	.	.	8r	.	8r	.	8r	.	16g/	.	.	.	.	.	.	.	.	.	.	.	.	.	.	.	.	.	.	8r	.	.	8.bb-T\J	.	.
.	.	.	.	.	.	.	.	.	16e-/JJ)	.	.	.	.	.	.	.	.	.	.	.	.	.	.	.	.	.	.	.	.	.	.	.	.
*	*	*	*	*	*	*	*	*	*rep	*	*	*	*	*	*	*	*	*	*	*	*	*	*	*	*	*	*	*	*	*	*	*	*
4r	.	.	4r	.	8e-\	.	8G/	.	(16B-/LL	.	.	.	.	.	.	.	.	.	.	.	.	.	.	.	.	.	.	8E-\	.	.	.	.	.
.	.	.	.	.	.	.	.	.	16e-/	.	.	.	.	.	.	.	.	.	.	.	.	.	.	.	.	.	.	.	.	.	(32aa\LLL	.	.
.	.	.	.	.	.	.	.	.	.	.	.	.	.	.	.	.	.	.	.	.	.	.	.	.	.	.	.	.	.	.	32bb-\JJJ	.	.
.	.	.	.	.	8r	.	8r	.	16g/	.	.	.	.	.	.	.	.	.	.	.	.	.	.	.	.	.	.	8r	.	.	32ccc\LLL	.	.
.	.	.	.	.	.	.	.	.	.	.	.	.	.	.	.	.	.	.	.	.	.	.	.	.	.	.	.	.	.	.	32bb-\	.	.
.	.	.	.	.	.	.	.	.	16e-/JJ)	.	.	.	.	.	.	.	.	.	.	.	.	.	.	.	.	.	.	.	.	.	32aa\	.	.
.	.	.	.	.	.	.	.	.	.	.	.	.	.	.	.	.	.	.	.	.	.	.	.	.	.	.	.	.	.	.	32gg\JJJ)	.	.
=27	=27	=27	=27	=27	=27	=27	=27	=27	=27	=27	=27	=27	=27	=27	=27	=27	=27	=27	=27	=27	=27	=27	=27	=27	=27	=27	=27	=27	=27	=27	=27	=27	=27
8BB-/	.	.	8BB-/	.	8B-/	.	8d/	.	16B-/LL	.	2r	.	.	2r	.	.	2r	.	.	2r	.	.	2ryy	2ryy	2ryy	2ryy	2ryy	8BB-/	.	2r	8ff\L	2r	.
.	.	.	.	.	.	.	.	.	16d/	.	.	.	.	.	.	.	.	.	.	.	.	.	.	.	.	.	.	.	.	.	.	.	.
8r	.	.	8r	.	8r	.	8r	.	16f/	.	.	.	.	.	.	.	.	.	.	.	.	.	.	.	.	.	.	8r	.	.	[8ddd\J	.	.
.	.	.	.	.	.	.	.	.	16d/JJ	.	.	.	.	.	.	.	.	.	.	.	.	.	.	.	.	.	.	.	.	.	.	.	.
4r	.	.	4r	.	4r	.	4r	.	8B-/	.	.	.	.	.	.	.	.	.	.	.	.	.	.	.	.	.	.	8B-\	.	.	(32ddd\LLL]	.	.
.	.	.	.	.	.	.	.	.	.	.	.	.	.	.	.	.	.	.	.	.	.	.	.	.	.	.	.	.	.	.	32bb-\	.	.
.	.	.	.	.	.	.	.	.	.	.	.	.	.	.	.	.	.	.	.	.	.	.	.	.	.	.	.	.	.	.	32ff\	.	.
.	.	.	.	.	.	.	.	.	.	.	.	.	.	.	.	.	.	.	.	.	.	.	.	.	.	.	.	.	.	.	32dd\JJJ	.	.
.	.	.	.	.	.	.	.	.	8r	.	.	.	.	.	.	.	.	.	.	.	.	.	.	.	.	.	.	8r	.	.	32b-/LLL	.	.
.	.	.	.	.	.	.	.	.	.	.	.	.	.	.	.	.	.	.	.	.	.	.	.	.	.	.	.	.	.	.	32f/	.	.
.	.	.	.	.	.	.	.	.	.	.	.	.	.	.	.	.	.	.	.	.	.	.	.	.	.	.	.	.	.	.	32d/	.	.
.	.	.	.	.	.	.	.	.	.	.	.	.	.	.	.	.	.	.	.	.	.	.	.	.	.	.	.	.	.	.	32B-/JJJ	.	.
=28	=28	=28	=28	=28	=28	=28	=28	=28	=28	=28	=28	=28	=28	=28	=28	=28	=28	=28	=28	=28	=28	=28	=28	=28	=28	=28	=28	=28	=28	=28	=28	=28	=28
4FF/	.	.	4F\	.	16r	.	16r	.	16r	.	2r	.	.	(4e-\	Vir-	.	2r	.	.	2r	.	.	2ryy	2ryy	2ryy	2ryy	2ryy	4F\	.	2r	4F/)	2r	.
.	.	.	.	.	16A/LL	.	16c/LL	.	16e-/LL	.	.	.	.	.	.	.	.	.	.	.	.	.	.	.	.	.	.	.	.	.	.	.	.
.	.	.	.	.	16A/	.	16c/	.	16e-/	.	.	.	.	.	.	.	.	.	.	.	.	.	.	.	.	.	.	.	.	.	.	.	.
.	.	.	.	.	16A/JJ	.	16c/JJ	.	16e-/JJ	.	.	.	.	.	.	.	.	.	.	.	.	.	.	.	.	.	.	.	.	.	.	.	.
4r	.	.	4r	.	8A/	.	8c/	.	8e-/	.	.	.	.	32e-\LLL	.	.	.	.	.	.	.	.	.	.	.	.	.	4r	.	.	4r	.	.
.	.	.	.	.	.	.	.	.	.	.	.	.	.	32d\	.	.	.	.	.	.	.	.	.	.	.	.	.	.	.	.	.	.	.
.	.	.	.	.	.	.	.	.	.	.	.	.	.	32c\	.	.	.	.	.	.	.	.	.	.	.	.	.	.	.	.	.	.	.
.	.	.	.	.	.	.	.	.	.	.	.	.	.	32B-\JJJ)	.	.	.	.	.	.	.	.	.	.	.	.	.	.	.	.	.	.	.
!	!	!	!	!	!	!	!	!	!	!	!	!	!	!LO:LB:g=original	!	!	!	!	!	!	!	!	!	!	!	!	!	!	!	!	!	!	!
.	.	.	.	.	8r	.	8r	.	8r	.	.	.	.	32A\LLL	.	.	.	.	.	.	.	.	.	.	.	.	.	.	.	.	.	.	.
.	.	.	.	.	.	.	.	.	.	.	.	.	.	32c\	.	.	.	.	.	.	.	.	.	.	.	.	.	.	.	.	.	.	.
.	.	.	.	.	.	.	.	.	.	.	.	.	.	32g\	.	.	.	.	.	.	.	.	.	.	.	.	.	.	.	.	.	.	.
.	.	.	.	.	.	.	.	.	.	.	.	.	.	32f\JJJ	-gi-	.	.	.	.	.	.	.	.	.	.	.	.	.	.	.	.	.	.
!	!	!	!LO:LB:g=original	!	!LO:LB:g=original	!	!	!	!	!	!	!	!	!	!	!	!	!	!	!	!	!	!	!	!	!	!	!	!	!	!LO:LB:g=original	!	!
!	!	!	!	!	!	!	!	!	!	!	!	!	!	!	!	!	!	!	!	!	!	!	!	!	!	!	!	!LO:LB:g=original	!	!	!	!	!
=29	=29	=29	=29	=29	=29	=29	=29	=29	=29	=29	=29	=29	=29	=29	=29	=29	=29	=29	=29	=29	=29	=29	=29	=29	=29	=29	=29	=29	=29	=29	=29	=29	=29
!	!	!	!	!	!	!	!	!	!	!	!	!	!	!	!	!	!	!	!	!	!	!	!	!	!	!	!	!	!	!	!LO:TX:a:t=7	!	!
4BB-/	.	.	4BB-/	.	8r	.	8r	.	8r	.	8r	.	.	8d\	-ne	.	8r	.	.	8r	.	.	2ryy	2ryy	2ryy	2ryy	2ryy	4G\	.	2r	2r	2r	.
.	.	.	.	.	8d\	.	(8g/	.	(8b-\	.	8G\	et	.	(8d\	Et	.	8b-\	et	.	(8.dd^\L	Et-	.	.	.	.	.	.	.	.	.	.	.	.
4r	.	.	4r	.	4d^\	.	4f#X/)	.	4a\)	.	4F#X\	.	.	4c\)	.	.	4a\	.	.	.	.	.	.	.	.	.	.	4r	.	.	.	.	.
.	.	.	.	.	.	.	.	.	.	.	.	.	.	.	.	.	.	.	.	32een\LL	.	.	.	.	.	.	.	.	.	.	.	.	.
.	.	.	.	.	.	.	.	.	.	.	.	.	.	.	.	.	.	.	.	32ff#X\JJJ)	.	.	.	.	.	.	.	.	.	.	.	.	.
.	.	.	.	.	.	.	.	.	.	.	.	.	.	.	.	.	.	.	.	16gg\LL	.	.	.	.	.	.	.	.	.	.	.	.	.
.	.	.	.	.	.	.	.	.	.	.	.	.	.	.	.	.	.	.	.	16aa\JJ	.	.	.	.	.	.	.	.	.	.	.	.	.
!	!	!	!	!	!	!	!	!	!LO:LB:g=original	!	!LO:LB:g=original	!	!	!	!	!	!	!	!	!LO:LB:g=original	!	!	!	!	!	!	!	!	!	!	!	!	!
=30	=30	=30	=30	=30	=30	=30	=30	=30	=30	=30	=30	=30	=30	=30	=30	=30	=30	=30	=30	=30	=30	=30	=30	=30	=30	=30	=30	=30	=30	=30	=30	=30	=30
4E-\	.	.	4E-\	.	8r	.	8r	.	8r	.	8r	.	.	8r	.	.	8r	.	.	8bb-\L	-ho-	.	2ryy	2ryy	2ryy	2ryy	2ryy	4E-\	.	2r	2r	2r	.
.	.	.	.	.	8c/L	.	(8e-/L	.	8g/L	.	8A\	ho-	.	4e-\	ho-	.	8g\	ho-	.	8cc\J	.	.	.	.	.	.	.	.	.	.	.	.	.
4r	.	.	4r	.	8B-/J	.	8d/J)	.	8f/J	.	4B-\	-mo	.	.	.	.	4f\	-mo	.	(16b-\LL	-mo	.	.	.	.	.	.	4r	.	.	.	.	.
.	.	.	.	.	.	.	.	.	.	.	.	.	.	.	.	.	.	.	.	32cc\L	.	.	.	.	.	.	.	.	.	.	.	.	.
.	.	.	.	.	.	.	.	.	.	.	.	.	.	.	.	.	.	.	.	32dd\JJJ	.	.	.	.	.	.	.	.	.	.	.	.	.
.	.	.	.	.	8r	.	8r	.	8r	.	.	.	.	8d\	-mo	.	.	.	.	16ee-\LL	.	.	.	.	.	.	.	.	.	.	.	.	.
!	!	!	!	!	!	!	!	!	!	!	!	!	!	!	!	!	!	!	!	!LO:TX:t=P:problem=brak kreski taktowej	!	!	!	!	!	!	!	!	!	!	!	!	!
.	.	.	.	.	.	.	.	.	.	.	.	.	.	.	.	.	.	.	.	16ff\JJ	.	.	.	.	.	.	.	.	.	.	.	.	.
=31	=31	=31	=31	=31	=31	=31	=31	=31	=31	=31	=31	=31	=31	=31	=31	=31	=31	=31	=31	=31	=31	=31	=31	=31	=31	=31	=31	=31	=31	=31	=31	=31	=31
8r	.	.	8r	.	8r	.	8r	.	8r	.	8r	.	.	8r	.	.	8r	.	.	8gg\L)	ho-	.	2ryy	2ryy	2ryy	2ryy	2ryy	8r	.	2r	2r	2r	.
!	!	!	!	!	!	!	!	!	!	!	!	!	!	!	!	!	!	!	!	!	!	!	!	!	!	!	!	!	!	!	!	!	!
*	*	*	*	*	*	*	*	*	*	*	*	*	*	*	*ij	*	*	*ij	*	*	*	*	*	*	*	*	*	*	*	*	*	*	*
8F\L	.	.	8F\L	.	8A/L	.	8c/L	.	8e-/L	.	8E-\	ho-	.	8c\	ho-	.	8f\	ho-	.	8a\J	.	.	.	.	.	.	.	8F\L	.	.	.	.	.
8BB-/J	.	.	8BB-\J	.	8B-/J	.	8B-/J	.	8d/J	.	4D\	-mo	.	4d\	-mo	.	4f\	-mo	.	(16b-\LL	-mo	.	.	.	.	.	.	8BB-\J	.	.	.	.	.
.	.	.	.	.	.	.	.	.	.	.	.	.	.	.	.	.	.	.	.	32bb-\L	.	.	.	.	.	.	.	.	.	.	.	.	.
.	.	.	.	.	.	.	.	.	.	.	.	.	.	.	.	.	.	.	.	32aa\JJJ	.	.	.	.	.	.	.	.	.	.	.	.	.
8r	.	.	8r	.	8r	.	8r	.	8r	.	.	.	.	.	.	.	.	.	.	32gg\LLL	.	.	.	.	.	.	.	8r	.	.	.	.	.
.	.	.	.	.	.	.	.	.	.	.	.	.	.	.	.	.	.	.	.	32ff\)	.	.	.	.	.	.	.	.	.	.	.	.	.
.	.	.	.	.	.	.	.	.	.	.	.	.	.	.	.	.	.	.	.	32ee-\	.	.	.	.	.	.	.	.	.	.	.	.	.
.	.	.	.	.	.	.	.	.	.	.	.	.	.	.	.	.	.	.	.	32dd\JJJ	.	.	.	.	.	.	.	.	.	.	.	.	.
*	*	*	*	*	*	*	*	*	*	*	*	*	*	*	*Xij	*	*	*Xij	*	*	*	*	*	*	*	*	*	*	*	*	*	*	*
!	!	!	!	!	!	!	!LO:LB:g=original	!	!	!	!	!	!	!	!	!	!	!	!	!	!	!	!	!	!	!	!	!	!	!	!	!	!
=32	=32	=32	=32	=32	=32	=32	=32	=32	=32	=32	=32	=32	=32	=32	=32	=32	=32	=32	=32	=32	=32	=32	=32	=32	=32	=32	=32	=32	=32	=32	=32	=32	=32
8r	.	.	8r	.	8r	.	8r	.	8r	.	(4E-\	fa-	.	(8.c\L	fa-	.	(4g\	fa-	.	(32bn\LLL	fa-	.	2ryy	2ryy	2ryy	2ryy	2ryy	8r	.	2r	2r	2r	.
.	.	.	.	.	.	.	.	.	.	.	.	.	.	.	.	.	.	.	.	32cc\	.	.	.	.	.	.	.	.	.	.	.	.	.
.	.	.	.	.	.	.	.	.	.	.	.	.	.	.	.	.	.	.	.	32dd\	.	.	.	.	.	.	.	.	.	.	.	.	.
.	.	.	.	.	.	.	.	.	.	.	.	.	.	.	.	.	.	.	.	32cc\JJJ	.	.	.	.	.	.	.	.	.	.	.	.	.
!	!	!	!	!	!	!	!	!	!	!	!	!	!	!	!	!	!	!	!	!	!	!	!	!	!	!	!	!	!	!	!	!	!
8E-\L	6	.	8E-\L	.	8c\L	.	(8e-/L	.	(8g/L	.	.	.	.	.	.	.	.	.	.	32b\LLL	.	.	.	.	.	.	.	8E-\L	.	.	.	.	.
.	.	.	.	.	.	.	.	.	.	.	.	.	.	.	.	.	.	.	.	32cc\	.	.	.	.	.	.	.	.	.	.	.	.	.
.	.	.	.	.	.	.	.	.	.	.	.	.	.	16e-\Jk	.	.	.	.	.	32ee-\	.	.	.	.	.	.	.	.	.	.	.	.	.
.	.	.	.	.	.	.	.	.	.	.	.	.	.	.	.	.	.	.	.	32gg\JJJ	.	.	.	.	.	.	.	.	.	.	.	.	.
8F\	6	.	8F\	.	8B-\	.	8d/	.	8f/	.	8F\)	.	.	8f\L)	.	.	8b-\L)	.	.	8dd\L)	-ctus	.	.	.	.	.	.	8F\	.	.	.	.	.
8FF/J	5	.	8FF/J	.	8F\J	.	8c/J)	.	8e-/J)	.	8FF/	-ctus	.	8e-\J	-ctus	.	8a\J	-ctus	.	8cc\J	.	.	.	.	.	.	.	8FF/J	.	.	.	.	.
=33	=33	=33	=33	=33	=33	=33	=33	=33	=33	=33	=33	=33	=33	=33	=33	=33	=33	=33	=33	=33	=33	=33	=33	=33	=33	=33	=33	=33	=33	=33	=33	=33	=33
4BB-/	.	.	4BB-/	.	(8F/L	.	8B-/L	.	(8d/L	.	8BB-/	est	.	8d\	est	.	8f\	est	.	8b-\	est	.	2ryy	2ryy	2ryy	2ryy	2ryy	4BB-/	.	2r	2r	2r	.
!	!	!	!	!	!	!	!	!	!	!	!LO:N:vis=8	!	!	!LO:N:vis=4	!	!	!	!	!	!	!	!	!	!	!	!	!	!	!	!	!	!	!
.	.	.	.	.	8d\J	.	8g/J	.	8b-/J	.	4r	.	.	(8d\	et	.	(8b-\	et	.	(8.dd\L	et	.	.	.	.	.	.	.	.	.	.	.	.
4r	.	.	4r	.	4d\)	.	4f#X/	.	4a/)	.	.	.	.	4c\)	.	.	4a\)	.	.	.	.	.	.	.	.	.	.	4r	.	.	.	.	.
.	.	.	.	.	.	.	.	.	.	.	.	.	.	.	.	.	.	.	.	32een\LL	.	.	.	.	.	.	.	.	.	.	.	.	.
.	.	.	.	.	.	.	.	.	.	.	.	.	.	.	.	.	.	.	.	32ff#X\JJJ	.	.	.	.	.	.	.	.	.	.	.	.	.
.	.	.	.	.	.	.	.	.	.	.	8F#X\	et	.	.	.	.	.	.	.	16gg\LL	.	.	.	.	.	.	.	.	.	.	.	.	.
.	.	.	.	.	.	.	.	.	.	.	.	.	.	.	.	.	.	.	.	16aa\JJ)	.	.	.	.	.	.	.	.	.	.	.	.	.
!LO:LB:g=original	!	!	!	!	!	!	!	!	!	!	!	!	!	!	!	!	!	!	!	!LO:LB:g=original	!	!	!	!	!	!	!	!	!	!	!	!	!
=34	=34	=34	=34	=34	=34	=34	=34	=34	=34	=34	=34	=34	=34	=34	=34	=34	=34	=34	=34	=34	=34	=34	=34	=34	=34	=34	=34	=34	=34	=34	=34	=34	=34
8E-\	.	.	8E-\	.	8r	.	8r	.	8r	.	8r	.	.	8r	.	.	8r	.	.	8bb-\L	ho-	.	2ryy	2ryy	2ryy	2ryy	2ryy	4E-\	.	2r	2r	2r	.
8r	.	.	8r	.	8c\L	.	8e-/L	.	8g/L	.	8An\	ho-	.	8e-\	ho-	.	8g\	ho-	.	8cc\J	.	.	.	.	.	.	.	.	.	.	.	.	.
8BB-/	.	.	8BB-/	.	8B-\J	.	8d/J	.	8f/J	.	4B-\	-mo	.	4d\	-mo	.	4f\	-mo	.	(16b-\LL	-mo	.	.	.	.	.	.	4r	.	.	.	.	.
.	.	.	.	.	.	.	.	.	.	.	.	.	.	.	.	.	.	.	.	32cc\L	.	.	.	.	.	.	.	.	.	.	.	.	.
.	.	.	.	.	.	.	.	.	.	.	.	.	.	.	.	.	.	.	.	32dd\JJJ	.	.	.	.	.	.	.	.	.	.	.	.	.
8r	.	.	8r	.	8r	.	8r	.	8r	.	.	.	.	.	.	.	.	.	.	16ee-\LL	.	.	.	.	.	.	.	.	.	.	.	.	.
.	.	.	.	.	.	.	.	.	.	.	.	.	.	.	.	.	.	.	.	16ff\JJ)	.	.	.	.	.	.	.	.	.	.	.	.	.
!	!	!	!	!	!	!	!	!	!	!	!	!	!	!LO:LB:g=original	!	!	!	!	!	!	!	!	!	!	!	!	!	!	!	!	!	!	!
=35	=35	=35	=35	=35	=35	=35	=35	=35	=35	=35	=35	=35	=35	=35	=35	=35	=35	=35	=35	=35	=35	=35	=35	=35	=35	=35	=35	=35	=35	=35	=35	=35	=35
8r	.	.	8r	.	8r	.	8r	.	8r	.	8r	.	.	8r	.	.	8r	.	.	8gg\L	fa	.	2ryy	2ryy	2ryy	2ryy	2ryy	8r	.	2r	2r	2r	.
!	!	!	!LO:TX:a:i:t=Color	!	!	!	!	!	!	!	!	!	!	!	!	!	!	!	!	!	!	!	!	!	!	!	!	!	!	!	!	!	!
8E-\L	4	.	8E-\L	.	8f\L	.	8e-/L	.	(8a\L	.	8C/	fa-	.	8e-\	fa-	.	8f\	fa-	.	8a\J	.	.	.	.	.	.	.	8e-\L	.	.	.	.	.
8D\	6	.	8D\	.	8a\	.	8d/	.	8b-\	.	8BB-/	-ctus	.	8d\	-ctus	.	8f\	-ctus	.	8b-\	ctus	.	.	.	.	.	.	8d\	.	.	.	.	.
8F\J	5	.	8C\J	.	8f\J	.	8a/J	.	8cc\J	.	8E-\	est	.	8c\	est	.	8g\	est	.	8ee-\	est	.	.	.	.	.	.	8A\J	.	.	.	.	.
=36	=36	=36	=36	=36	=36	=36	=36	=36	=36	=36	=36	=36	=36	=36	=36	=36	=36	=36	=36	=36	=36	=36	=36	=36	=36	=36	=36	=36	=36	=36	=36	=36	=36
8BB-/	3	.	8BB-/	.	4f\	.	4b-\	.	4dd\)	.	4D\	et	.	4B-\	et	.	4f\	et	.	4dd\	et	.	2ryy	2ryy	2ryy	2ryy	2ryy	8B-\	.	2r	16r	2r	.
!	!	!	!	!	!	!	!	!	!	!	!	!	!	!	!	!	!	!	!	!	!	!	!	!	!	!	!	!	!	!	!LO:N:vis=16	!	!
.	.	.	.	.	.	.	.	.	.	.	.	.	.	.	.	.	.	.	.	.	.	.	.	.	.	.	.	.	.	.	(32bb-\LLL	.	.
!	!	!	!	!	!	!	!	!	!	!	!	!	!	!	!	!	!	!	!	!	!	!	!	!	!	!	!	!	!	!	!LO:N:vis=16	!	!
.	.	.	.	.	.	.	.	.	.	.	.	.	.	.	.	.	.	.	.	.	.	.	.	.	.	.	.	.	.	.	32aa\JJJ	.	.
8r	.	.	8r	.	.	.	.	.	.	.	.	.	.	.	.	.	.	.	.	.	.	.	.	.	.	.	.	8r	.	.	32ccc\LLL	.	.
.	.	.	.	.	.	.	.	.	.	.	.	.	.	.	.	.	.	.	.	.	.	.	.	.	.	.	.	.	.	.	32bb-\	.	.
.	.	.	.	.	.	.	.	.	.	.	.	.	.	.	.	.	.	.	.	.	.	.	.	.	.	.	.	.	.	.	32ddd\	.	.
.	.	.	.	.	.	.	.	.	.	.	.	.	.	.	.	.	.	.	.	.	.	.	.	.	.	.	.	.	.	.	32ccc\JJJ)	.	.
8D\	.	.	8D/	.	4r	.	4r	.	4r	.	8F\	ho-	.	8f\	ho-	.	8b-\	ho-	.	8dd\	ho-	.	.	.	.	.	.	8d\	.	.	(32bb-\LLL	.	.
.	.	.	.	.	.	.	.	.	.	.	.	.	.	.	.	.	.	.	.	.	.	.	.	.	.	.	.	.	.	.	32aa\	.	.
.	.	.	.	.	.	.	.	.	.	.	.	.	.	.	.	.	.	.	.	.	.	.	.	.	.	.	.	.	.	.	32gg\	.	.
.	.	.	.	.	.	.	.	.	.	.	.	.	.	.	.	.	.	.	.	.	.	.	.	.	.	.	.	.	.	.	32ff#X\JJJ	.	.
8r	.	.	8r	.	.	.	.	.	.	.	8D\	-mo	.	8f\	-mo	.	8b-\	-mo	.	8dd\	-mo	.	.	.	.	.	.	8r	.	.	32aa\LLL	.	.
.	.	.	.	.	.	.	.	.	.	.	.	.	.	.	.	.	.	.	.	.	.	.	.	.	.	.	.	.	.	.	32gg\	.	.
.	.	.	.	.	.	.	.	.	.	.	.	.	.	.	.	.	.	.	.	.	.	.	.	.	.	.	.	.	.	.	32ff\	.	.
.	.	.	.	.	.	.	.	.	.	.	.	.	.	.	.	.	.	.	.	.	.	.	.	.	.	.	.	.	.	.	32ee-\JJJ)	.	.
!	!	!	!	!	!	!	!	!	!	!	!LO:LB:g=original	!	!	!	!	!	!	!	!	!	!	!	!	!	!	!	!	!	!	!	!	!	!
=37	=37	=37	=37	=37	=37	=37	=37	=37	=37	=37	=37	=37	=37	=37	=37	=37	=37	=37	=37	=37	=37	=37	=37	=37	=37	=37	=37	=37	=37	=37	=37	=37	=37
!	!	!	!	!	!LO:TX:a:t=3	!	!LO:TX:a:t=3	!	!LO:TX:a:t=3	!	!	!	!	!	!	!	!	!	!	!	!	!	!	!	!	!	!	!	!	!	!	!	!
8E-\	.	.	8E-\	.	2r	.	2r	.	2r	.	4E-\	fa-	.	4g\	fa-	.	4cc\	fa-	.	4ee-\	fa-	.	2ryy	2ryy	2ryy	2ryy	2ryy	8e-\	.	2r	(32dd\LLL	2r	.
.	.	.	.	.	.	.	.	.	.	.	.	.	.	.	.	.	.	.	.	.	.	.	.	.	.	.	.	.	.	.	32cc\	.	.
.	.	.	.	.	.	.	.	.	.	.	.	.	.	.	.	.	.	.	.	.	.	.	.	.	.	.	.	.	.	.	32bX\	.	.
.	.	.	.	.	.	.	.	.	.	.	.	.	.	.	.	.	.	.	.	.	.	.	.	.	.	.	.	.	.	.	32cc\JJJ	.	.
8r	.	.	8r	.	.	.	.	.	.	.	.	.	.	.	.	.	.	.	.	.	.	.	.	.	.	.	.	8r	.	.	32ee-\LLL	.	.
.	.	.	.	.	.	.	.	.	.	.	.	.	.	.	.	.	.	.	.	.	.	.	.	.	.	.	.	.	.	.	32dd\	.	.
.	.	.	.	.	.	.	.	.	.	.	.	.	.	.	.	.	.	.	.	.	.	.	.	.	.	.	.	.	.	.	32cc\	.	.
.	.	.	.	.	.	.	.	.	.	.	.	.	.	.	.	.	.	.	.	.	.	.	.	.	.	.	.	.	.	.	32b-\JJJ)	.	.
8F\	.	.	8F\	.	.	.	.	.	.	.	4F\	-ctus	.	4e-\	-ctus	.	4a\	-ctus	.	4cc\	-ctus	.	.	.	.	.	.	8f\	.	.	(32a/LLL	.	.
.	.	.	.	.	.	.	.	.	.	.	.	.	.	.	.	.	.	.	.	.	.	.	.	.	.	.	.	.	.	.	32g/	.	.
.	.	.	.	.	.	.	.	.	.	.	.	.	.	.	.	.	.	.	.	.	.	.	.	.	.	.	.	.	.	.	32f/	.	.
.	.	.	.	.	.	.	.	.	.	.	.	.	.	.	.	.	.	.	.	.	.	.	.	.	.	.	.	.	.	.	32eX/JJJ	.	.
8r	.	.	8r	.	.	.	.	.	.	.	.	.	.	.	.	.	.	.	.	.	.	.	.	.	.	.	.	8r	.	.	32g/LLL	.	.
.	.	.	.	.	.	.	.	.	.	.	.	.	.	.	.	.	.	.	.	.	.	.	.	.	.	.	.	.	.	.	32f/)	.	.
.	.	.	.	.	.	.	.	.	.	.	.	.	.	.	.	.	.	.	.	.	.	.	.	.	.	.	.	.	.	.	32e-/	.	.
.	.	.	.	.	.	.	.	.	.	.	.	.	.	.	.	.	.	.	.	.	.	.	.	.	.	.	.	.	.	.	32c/JJJ	.	.
=38	=38	=38	=38	=38	=38	=38	=38	=38	=38	=38	=38	=38	=38	=38	=38	=38	=38	=38	=38	=38	=38	=38	=38	=38	=38	=38	=38	=38	=38	=38	=38	=38	=38
4BB-/	.	.	4BB-/	.	2r	.	2r	.	2r	.	4BB-/	est	.	4d\	est	.	4f\	est	.	4b-\	est	.	2ryy	2ryy	2ryy	2ryy	2ryy	4B-\	.	2r	(32d/LLL	2r	.
.	.	.	.	.	.	.	.	.	.	.	.	.	.	.	.	.	.	.	.	.	.	.	.	.	.	.	.	.	.	.	32F/	.	.
.	.	.	.	.	.	.	.	.	.	.	.	.	.	.	.	.	.	.	.	.	.	.	.	.	.	.	.	.	.	.	32B-/	.	.
.	.	.	.	.	.	.	.	.	.	.	.	.	.	.	.	.	.	.	.	.	.	.	.	.	.	.	.	.	.	.	32d/JJJ)	.	.
!	!	!	!	!	!	!	!	!	!	!	!	!	!	!	!	!	!	!	!	!	!	!	!	!	!	!	!	!	!	!	!LO:LB:g=original	!	!
.	.	.	.	.	.	.	.	.	.	.	.	.	.	.	.	.	.	.	.	.	.	.	.	.	.	.	.	.	.	.	32f/LLL	.	.
.	.	.	.	.	.	.	.	.	.	.	.	.	.	.	.	.	.	.	.	.	.	.	.	.	.	.	.	.	.	.	(<32B-/	.	.
.	.	.	.	.	.	.	.	.	.	.	.	.	.	.	.	.	.	.	.	.	.	.	.	.	.	.	.	.	.	.	32d/	.	.
.	.	.	.	.	.	.	.	.	.	.	.	.	.	.	.	.	.	.	.	.	.	.	.	.	.	.	.	.	.	.	32f/JJJ	.	.
4r	.	.	4r	.	.	.	.	.	.	.	4r	.	.	4r	.	.	4r	.	.	4r	.	.	.	.	.	.	.	4r	.	.	32b-\LLL)	.	.
.	.	.	.	.	.	.	.	.	.	.	.	.	.	.	.	.	.	.	.	.	.	.	.	.	.	.	.	.	.	.	(32d\	.	.
.	.	.	.	.	.	.	.	.	.	.	.	.	.	.	.	.	.	.	.	.	.	.	.	.	.	.	.	.	.	.	32f\	.	.
.	.	.	.	.	.	.	.	.	.	.	.	.	.	.	.	.	.	.	.	.	.	.	.	.	.	.	.	.	.	.	32b-\JJJ	.	.
.	.	.	.	.	.	.	.	.	.	.	.	.	.	.	.	.	.	.	.	.	.	.	.	.	.	.	.	.	.	.	32dd\LLL)	.	.
.	.	.	.	.	.	.	.	.	.	.	.	.	.	.	.	.	.	.	.	.	.	.	.	.	.	.	.	.	.	.	(32f\	.	.
.	.	.	.	.	.	.	.	.	.	.	.	.	.	.	.	.	.	.	.	.	.	.	.	.	.	.	.	.	.	.	32b-\	.	.
.	.	.	.	.	.	.	.	.	.	.	.	.	.	.	.	.	.	.	.	.	.	.	.	.	.	.	.	.	.	.	32dd\JJJ	.	.
=39	=39	=39	=39	=39	=39	=39	=39	=39	=39	=39	=39	=39	=39	=39	=39	=39	=39	=39	=39	=39	=39	=39	=39	=39	=39	=39	=39	=39	=39	=39	=39	=39	=39
!	!	!	!	!	!	!	!	!	!	!	!LO:TX:a:t=3	!	!	!LO:TX:a:t=3	!	!	!LO:TX:a:t=3	!	!	!LO:TX:a:t=3	!	!	!	!	!	!	!	!	!	!	!	!	!
2r	.	.	2r	.	2r	.	2r	.	2r	.	2r	.	.	2r	.	.	2r	.	.	2r	.	.	2ryy	2ryy	2ryy	2ryy	2ryy	2r	.	2r	32ff\LLL)	2r	.
.	.	.	.	.	.	.	.	.	.	.	.	.	.	.	.	.	.	.	.	.	.	.	.	.	.	.	.	.	.	.	(32b-\	.	.
.	.	.	.	.	.	.	.	.	.	.	.	.	.	.	.	.	.	.	.	.	.	.	.	.	.	.	.	.	.	.	32dd\	.	.
.	.	.	.	.	.	.	.	.	.	.	.	.	.	.	.	.	.	.	.	.	.	.	.	.	.	.	.	.	.	.	32ff\JJJ	.	.
.	.	.	.	.	.	.	.	.	.	.	.	.	.	.	.	.	.	.	.	.	.	.	.	.	.	.	.	.	.	.	32bb-\LLL)	.	.
.	.	.	.	.	.	.	.	.	.	.	.	.	.	.	.	.	.	.	.	.	.	.	.	.	.	.	.	.	.	.	(32dd\	.	.
.	.	.	.	.	.	.	.	.	.	.	.	.	.	.	.	.	.	.	.	.	.	.	.	.	.	.	.	.	.	.	32ff\	.	.
.	.	.	.	.	.	.	.	.	.	.	.	.	.	.	.	.	.	.	.	.	.	.	.	.	.	.	.	.	.	.	32bb-\JJJ	.	.
.	.	.	.	.	.	.	.	.	.	.	.	.	.	.	.	.	.	.	.	.	.	.	.	.	.	.	.	.	.	.	32ddd\LLL)	.	.
.	.	.	.	.	.	.	.	.	.	.	.	.	.	.	.	.	.	.	.	.	.	.	.	.	.	.	.	.	.	.	(32ff\	.	.
.	.	.	.	.	.	.	.	.	.	.	.	.	.	.	.	.	.	.	.	.	.	.	.	.	.	.	.	.	.	.	32bb-\	.	.
.	.	.	.	.	.	.	.	.	.	.	.	.	.	.	.	.	.	.	.	.	.	.	.	.	.	.	.	.	.	.	32ddd\JJJ	.	.
.	.	.	.	.	.	.	.	.	.	.	.	.	.	.	.	.	.	.	.	.	.	.	.	.	.	.	.	.	.	.	16fff\)	.	.
.	.	.	.	.	.	.	.	.	.	.	.	.	.	.	.	.	.	.	.	.	.	.	.	.	.	.	.	.	.	.	16r	.	.
!	!	!	!LO:LB:g=original	!	!	!	!	!	!	!	!	!	!	!	!	!	!	!	!	!	!	!	!	!	!	!	!	!	!	!	!	!	!
!	!	!	!	!	!	!	!	!	!	!	!	!	!	!	!	!	!	!	!	!	!	!	!	!	!	!	!	!LO:LB:g=original	!	!	!	!	!
=40	=40	=40	=40	=40	=40	=40	=40	=40	=40	=40	=40	=40	=40	=40	=40	=40	=40	=40	=40	=40	=40	=40	=40	=40	=40	=40	=40	=40	=40	=40	=40	=40	=40
8F\	.	.	8F\	.	16r	.	16r	.	16r	.	2r	.	.	2r	.	.	2r	.	.	2r	.	.	2ryy	2ryy	2ryy	2ryy	2ryy	8f\	.	2r	4F/	2r	.
.	.	.	.	.	16f\LL	.	16B-/LL	.	16d/LL	.	.	.	.	.	.	.	.	.	.	.	.	.	.	.	.	.	.	.	.	.	.	.	.
8r	.	.	8r	.	16f\	.	16B-/	.	16d/	.	.	.	.	.	.	.	.	.	.	.	.	.	.	.	.	.	.	8r	.	.	.	.	.
.	.	.	.	.	16f\JJ	.	16B-/JJ	.	16d/JJ	.	.	.	.	.	.	.	.	.	.	.	.	.	.	.	.	.	.	.	.	.	.	.	.
*	*	*	*	*	*tremolo	*	*tremolo	*	*tremolo	*	*	*	*	*	*	*	*	*	*	*	*	*	*	*	*	*	*	*	*	*	*	*	*
!	!	!	!	!	!LO:TX:t=P:problem=4 kropki art.	!	!	!	!	!	!	!	!	!	!	!	!	!	!	!	!	!	!	!	!	!	!	!	!	!	!	!	!
8FF/	.	.	8FF/	.	16f'\LL	.	16c/LL	.	16e-'/LL	.	.	.	.	.	.	.	.	.	.	.	.	.	.	.	.	.	.	8F\	.	.	4aat\	.	.
.	.	.	.	.	16f'\	.	16c/	.	16e-'/	.	.	.	.	.	.	.	.	.	.	.	.	.	.	.	.	.	.	.	.	.	.	.	.
8r	.	.	8r	.	16f'\	.	16c/	.	16e-'/	.	.	.	.	.	.	.	.	.	.	.	.	.	.	.	.	.	.	8r	.	.	.	.	.
.	.	.	.	.	16f'\JJ	.	16c/JJ	.	16e-'/JJ	.	.	.	.	.	.	.	.	.	.	.	.	.	.	.	.	.	.	.	.	.	.	.	.
*	*	*	*	*	*	*	*	*	*	*	*	*	*	*	*	*	*	*	*	*	*	*	*	*	*	*	*	*clefC4	*	*	*	*	*
!	!	!	!	!	!LO:LB:g=original	!	!	!	!	!	!	!	!	!	!	!	!	!	!	!	!	!	!	!	!	!	!	!	!	!	!	!	!
=41	=41	=41	=41	=41	=41	=41	=41	=41	=41	=41	=41	=41	=41	=41	=41	=41	=41	=41	=41	=41	=41	=41	=41	=41	=41	=41	=41	=41	=41	=41	=41	=41	=41
8BB-/	.	.	8BB-/	.	8f\	.	8B-/	.	8d/	.	2r	.	.	2r	.	.	2r	.	.	2r	.	.	2ryy	2ryy	2ryy	2ryy	2ryy	8d\	f	8dd\	8bb-\	8ddd\	.
!	!	!	!	!LO:DY:b	!	!	!	!	!	!	!	!	!	!	!	!	!	!	!	!	!	!	!	!	!	!	!	!	!	!	!	!	!
4D^\	.	.	4D^\	f	4f^\	.	4b-^\	.	4dd^\	.	.	.	.	.	.	.	.	.	.	.	.	.	.	.	.	.	.	4d\	.	(4dd^\	4bb-^\	(4ddd^\	.
8F#X\	.	.	8F#X\	.	8f#X\	.	8a\	.	8cc\	.	.	.	.	.	.	.	.	.	.	.	.	.	.	.	.	.	.	8f#X\	.	8cc\)	8aa\	8fff#X\)	.
!	!	!	!	!	!	!	!	!	!	!	!	!	!	!	!	!	!	!	!	!	!	!	!	!	!	!	!	!	!	!	!	!LO:LB:g=original	!
=42	=42	=42	=42	=42	=42	=42	=42	=42	=42	=42	=42	=42	=42	=42	=42	=42	=42	=42	=42	=42	=42	=42	=42	=42	=42	=42	=42	=42	=42	=42	=42	=42	=42
!LO:TX:a:t=uni	!	!	!	!	!	!	!	!	!	!	!	!	!	!	!	!	!	!	!	!	!	!	!	!	!	!	!	!	!	!	!	!	!
!LO:TX:t=P:problem=mixed beam	!	!	!	!	!LO:TX:t=P:problem=mixed beam	!	!	!	!	!	!	!	!	!	!	!	!	!	!	!	!	!	!	!	!	!	!	!LO:SIC:s=8d	!	!	!	!	!
!	!	!	!	!	!	!	!	!	!	!	!	!	!	!	!	!	!	!	!	!	!	!LO:DY:b	!	!	!	!	!	!	!	!	!	!	!
!	!	!	!	!	!	!	!	!LO:DY:b	!	!	!	!	!	!	!	!	!	!	!	!	!	!	!	!	!	!	!	!	!	!	!	!	!
8G\L	.	.	8G\L	.	32g\LLL	.	32g/LLL	f	32b-^/LLL	.	8G\	Cru-	f	8d\	Cru-	f	8g\	Cru-	f	8b-\	Cru-	f	2ryy	2ryy	2ryy	2ryy	2ryy	8e-\	.	8b-\	8gg\	8ggg\	.
.	.	.	.	.	32G/	.	32d/	.	32B-/ 32g	.	.	.	.	.	.	.	.	.	.	.	.	.	.	.	.	.	.	.	.	.	.	.	.
.	.	.	.	.	32G/	.	32d/	.	32B-/ 32g	.	.	.	.	.	.	.	.	.	.	.	.	.	.	.	.	.	.	.	.	.	.	.	.
.	.	.	.	.	32G/JJJ	.	32d/JJJ	.	32B-/JJJ 32g	.	.	.	.	.	.	.	.	.	.	.	.	.	.	.	.	.	.	.	.	.	.	.	.
*	*	*	*	*	*Xtremolo	*	*tremolo	*	*	*	*	*	*	*	*	*	*	*	*	*	*	*	*	*	*	*	*	*	*	*	*	*	*
!	!	!	!	!	!	!	!LO:N:vis=32	!	!LO:N:vis=4	!	!	!	!	!	!	!	!	!	!	!	!	!	!	!	!	!	!	!	!	!	!	!	!
8BB-/	.	.	8BB-\	.	32G/LLL	.	64d/LLLL	.	64B-/ 64gLLLL	.	8G\	-ci-	.	8d\	-ci-	.	8g\	-ci-	.	8b-\	-ci-	.	.	.	.	.	.	8r	.	8r	8r	8r	.
.	.	.	.	.	.	.	64d/	.	64B-/ 64g	.	.	.	.	.	.	.	.	.	.	.	.	.	.	.	.	.	.	.	.	.	.	.	.
.	.	.	.	.	32G/	.	64d/	.	64B-/ 64g	.	.	.	.	.	.	.	.	.	.	.	.	.	.	.	.	.	.	.	.	.	.	.	.
.	.	.	.	.	.	.	64d/	.	64B-/ 64g	.	.	.	.	.	.	.	.	.	.	.	.	.	.	.	.	.	.	.	.	.	.	.	.
.	.	.	.	.	32G/	.	64d/	.	64B-/ 64g	.	.	.	.	.	.	.	.	.	.	.	.	.	.	.	.	.	.	.	.	.	.	.	.
.	.	.	.	.	.	.	64d/	.	64B-/ 64g	.	.	.	.	.	.	.	.	.	.	.	.	.	.	.	.	.	.	.	.	.	.	.	.
.	.	.	.	.	32G/JJJ	.	64d/	.	64B-/ 64g	.	.	.	.	.	.	.	.	.	.	.	.	.	.	.	.	.	.	.	.	.	.	.	.
.	.	.	.	.	.	.	64d/JJJJ	.	64B-/ 64gJJJJ	.	.	.	.	.	.	.	.	.	.	.	.	.	.	.	.	.	.	.	.	.	.	.	.
!	!	!	!	!	!	!	!	!	!LO:N:vis=2	!	!	!	!	!	!	!	!	!	!	!	!	!	!	!	!	!	!	!	!	!	!	!	!
*	*	*	*	*	*tremolo	*	*	*	*	*	*	*	*	*	*	*	*	*	*	*	*	*	*	*	*	*	*	*	*	*	*	*	*
8D/	.	.	8D\	.	32G/LLL	.	32d/LLL	.	32B-/ 32gLLL	.	4G\	-fi-	.	4d\	-fi-	.	4g\	-fi-	.	4b-\	-fi-	.	.	.	.	.	.	4r	.	4r	4r	4r	.
.	.	.	.	.	32G/	.	32d/	.	32B-/ 32g	.	.	.	.	.	.	.	.	.	.	.	.	.	.	.	.	.	.	.	.	.	.	.	.
.	.	.	.	.	32G/	.	32d/	.	32B-/ 32g	.	.	.	.	.	.	.	.	.	.	.	.	.	.	.	.	.	.	.	.	.	.	.	.
.	.	.	.	.	32G/	.	32d/	.	32B-/ 32g	.	.	.	.	.	.	.	.	.	.	.	.	.	.	.	.	.	.	.	.	.	.	.	.
8G/J	.	.	8G\J	.	32G/	.	32d/	.	32B-/ 32g	.	.	.	.	.	.	.	.	.	.	.	.	.	.	.	.	.	.	.	.	.	.	.	.
.	.	.	.	.	32G/	.	32d/	.	32B-/ 32g	.	.	.	.	.	.	.	.	.	.	.	.	.	.	.	.	.	.	.	.	.	.	.	.
.	.	.	.	.	32G/	.	32d/	.	32B-/ 32g	.	.	.	.	.	.	.	.	.	.	.	.	.	.	.	.	.	.	.	.	.	.	.	.
.	.	.	.	.	32G/JJJ	.	32d/JJJ	.	32B-/ 32gJJJ	.	.	.	.	.	.	.	.	.	.	.	.	.	.	.	.	.	.	.	.	.	.	.	.
*	*	*	*	*	*	*	*	*	*	*	*	*	*	*	*	*	*	*	*	*	*	*	*	*	*	*	*	*clefF4	*	*	*	*	*
!	!	!	!	!	!	!	!LO:LB:g=original	!	!	!	!	!	!	!	!	!	!	!	!	!	!LO:LB:g=original	!	!	!	!	!	!	!	!	!	!LO:LB:g=original	!	!
=43	=43	=43	=43	=43	=43	=43	=43	=43	=43	=43	=43	=43	=43	=43	=43	=43	=43	=43	=43	=43	=43	=43	=43	=43	=43	=43	=43	=43	=43	=43	=43	=43	=43
!	!	!	!	!	! 	!	!	!	!	!	!	!	!	!	!	!	!	!	!	!	!	!	!	!	!	!	!	!	!	!LO:N:vis=4	!	!	!
8F#X\L	.	.	8F#X\L	.	32c\LLL	.	32d/LLL	.	32A/ 32f#XLLL	.	4D\	-xus	.	4c\	-xus	.	4f#X\	-xus	.	4a\	-xus	.	2ryy	2ryy	2ryy	2ryy	2ryy	8r	.	8r	4r	4r	.
.	.	.	.	.	32c\	.	32d/	.	32A/ 32f#X	.	.	.	.	.	.	.	.	.	.	.	.	.	.	.	.	.	.	.	.	.	.	.	.
.	.	.	.	.	32c\	.	32d/	.	32A/ 32f#X	.	.	.	.	.	.	.	.	.	.	.	.	.	.	.	.	.	.	.	.	.	.	.	.
.	.	.	.	.	32c\	.	32d/	.	32A/ 32f#X	.	.	.	.	.	.	.	.	.	.	.	.	.	.	.	.	.	.	.	.	.	.	.	.
8A\	.	.	8A\	.	32c\	.	32d/	.	32A/ 32f#X	.	.	.	.	.	.	.	.	.	.	.	.	.	.	.	.	.	.	8D\L	.	8r	.	.	.
.	.	.	.	.	32c\	.	32d/	.	32A/ 32f#X	.	.	.	.	.	.	.	.	.	.	.	.	.	.	.	.	.	.	.	.	.	.	.	.
.	.	.	.	.	32c\	.	32d/	.	32A/ 32f#X	.	.	.	.	.	.	.	.	.	.	.	.	.	.	.	.	.	.	.	.	.	.	.	.
.	.	.	.	.	32c\	.	32d/	.	32A/ 32f#X	.	.	.	.	.	.	.	.	.	.	.	.	.	.	.	.	.	.	.	.	.	.	.	.
8D\J	.	.	8D\J	.	32c\	.	32d/	.	32A/ 32f#X	.	4r	.	.	4r	.	.	4r	.	.	4r	.	.	.	.	.	.	.	8F#X\	.	8.r	8r	8r	.
.	.	.	.	.	32c\	.	32d/	.	32A/ 32f#X	.	.	.	.	.	.	.	.	.	.	.	.	.	.	.	.	.	.	.	.	.	.	.	.
.	.	.	.	.	32c\	.	32d/	.	32A/ 32f#X	.	.	.	.	.	.	.	.	.	.	.	.	.	.	.	.	.	.	.	.	.	.	.	.
.	.	.	.	.	32c\	.	32d/	.	32A/ 32f#X	.	.	.	.	.	.	.	.	.	.	.	.	.	.	.	.	.	.	.	.	.	.	.	.
8r	.	.	8r	.	32c\	.	32d/	.	32A/ 32f#X	.	.	.	.	.	.	.	.	.	.	.	.	.	.	.	.	.	.	8A\J	.	.	16r	16r	.
.	.	.	.	.	32c\	.	32d/	.	32A/ 32f#X	.	.	.	.	.	.	.	.	.	.	.	.	.	.	.	.	.	.	.	.	.	.	.	.
.	.	.	.	.	32c\	.	32d/	.	32A/ 32f#X	.	.	.	.	.	.	.	.	.	.	.	.	.	.	.	.	.	.	.	.	16a\	16dd\	16ddd\	.
.	.	.	.	.	32c\JJJ	.	32d/JJJ	.	32A/ 32f#XJJJ	.	.	.	.	.	.	.	.	.	.	.	.	.	.	.	.	.	.	.	.	.	.	.	.
!	!	!	!	!	!	!	!	!	!	!	!	!	!	!LO:LB:g=original	!	!	!LO:LB:g=original	!	!	!	!	!	!	!	!	!	!	!	!	!	!	!	!
!	!	!	!	!	!	!	!	!	!	!	!	!	!	!	!	!	!	!	!	!	!	!	!	!	!	!	!	!	!	!LO:LB:g=original	!	!	!
=44	=44	=44	=44	=44	=44	=44	=44	=44	=44	=44	=44	=44	=44	=44	=44	=44	=44	=44	=44	=44	=44	=44	=44	=44	=44	=44	=44	=44	=44	=44	=44	=44	=44
!LO:TX:a:t=2	!	!	!LO:TX:a:t=2	!	!	!	!	!	!	!	!	!	!	!	!	!	!	!	!	!	!	!	!	!	!	!	!	!	!	!	!	!	!
*	*	*	*	*	*	*	*rep	*	*rep	*	*	*	*	*	*	*	*	*	*	*	*	*	*	*	*	*	*	*	*	*	*	*	*
!	!	!	!	!	!	!	!	!	!	!	!	!	!	!	!	!	!	!	!	!	!	!	!	!	!	!	!	!	!	!	!LO:N:vis=8.	!	!
2r	.	.	2r	.	32d\LLL	.	32d/LLL	.	32A/ 32f#XLLL	.	8D\	E-	.	8c\	e-	.	8f\	e-	.	8a\	e-	.	2ryy	2ryy	2ryy	2ryy	2ryy	8d\	.	4a\	(8ee-\L	8eee-\	.
.	.	.	.	.	32d\	.	32d/	.	32A/ 32f#X	.	.	.	.	.	.	.	.	.	.	.	.	.	.	.	.	.	.	.	.	.	.	.	.
.	.	.	.	.	32d\	.	32d/	.	32A/ 32f#X	.	.	.	.	.	.	.	.	.	.	.	.	.	.	.	.	.	.	.	.	.	.	.	.
.	.	.	.	.	32d\	.	32d/	.	32A/ 32f#X	.	.	.	.	.	.	.	.	.	.	.	.	.	.	.	.	.	.	.	.	.	.	.	.
.	.	.	.	.	32d\	.	32d/	.	32A/ 32f#X	.	8En\	-ti-	.	8c\	-ti-	.	8f\	-ti-	.	8a\	-ti-	.	.	.	.	.	.	8r	.	.	16dd\Jk)	16ddd\	.
.	.	.	.	.	32d\	.	32d/	.	32A/ 32f#X	.	.	.	.	.	.	.	.	.	.	.	.	.	.	.	.	.	.	.	.	.	.	.	.
.	.	.	.	.	32d\	.	32d/	.	32A/ 32f#X	.	.	.	.	.	.	.	.	.	.	.	.	.	.	.	.	.	.	.	.	.	32r	32r	.
.	.	.	.	.	32d\	.	32d/	.	32A/ 32f#X	.	.	.	.	.	.	.	.	.	.	.	.	.	.	.	.	.	.	.	.	.	32dd\	32ddd\	.
!	!	!	!	!	!	!	!	!	!	!	!	!	!	!	!	!	!	!	!	!	!	!	!	!	!	!	!	!	!	!	!LO:N:vis=8.	!	!
.	.	.	.	.	32d\	.	32d/	.	32A/ 32f#X	.	8F#X\	-am	.	8c\	-am	.	8f\	-am	.	8a\	-am	.	.	.	.	.	.	4r	.	4a\	8ee-\L	8eee-\	.
.	.	.	.	.	32d\	.	32d/	.	32A/ 32f#X	.	.	.	.	.	.	.	.	.	.	.	.	.	.	.	.	.	.	.	.	.	.	.	.
.	.	.	.	.	32d\	.	32d/	.	32A/ 32f#X	.	.	.	.	.	.	.	.	.	.	.	.	.	.	.	.	.	.	.	.	.	.	.	.
.	.	.	.	.	32d\	.	32d/	.	32A/ 32f#X	.	.	.	.	.	.	.	.	.	.	.	.	.	.	.	.	.	.	.	.	.	.	.	.
.	.	.	.	.	32d\	.	32d/	.	32A/ 32f#X	.	8D\	pro	.	8c\	pro	.	8f\	pro	.	8a\	pro	.	.	.	.	.	.	.	.	.	16dd\Jk	16ddd\	.
.	.	.	.	.	32d\	.	32d/	.	32A/ 32f#X	.	.	.	.	.	.	.	.	.	.	.	.	.	.	.	.	.	.	.	.	.	.	.	.
.	.	.	.	.	32d\	.	32d/	.	32A/ 32f#X	.	.	.	.	.	.	.	.	.	.	.	.	.	.	.	.	.	.	.	.	.	32r	32r	.
.	.	.	.	.	32d\JJJ	.	32d/JJJ	.	32A/ 32f#XJJJ	.	.	.	.	.	.	.	.	.	.	.	.	.	.	.	.	.	.	.	.	.	32dd\	32ddd\	.
*	*	*	*	*	*	*	*Xrep	*	*Xrep	*	*	*	*	*	*	*	*	*	*	*	*	*	*	*	*	*	*	*	*	*	*	*	*
=45	=45	=45	=45	=45	=45	=45	=45	=45	=45	=45	=45	=45	=45	=45	=45	=45	=45	=45	=45	=45	=45	=45	=45	=45	=45	=45	=45	=45	=45	=45	=45	=45	=45
*	*	*	*	*	*	*	*rep	*	*	*	*	*	*	*	*	*	*	*	*	*	*	*	*	*	*	*	*	*	*	*	*	*	*
2r	.	.	2r	.	32G/LLL	.	32d/LLL	.	32B-/ 32gLLL	.	8G\	no-	.	8d\	no-	.	8g\	no-	.	8b-\	no-	.	2ryy	2ryy	2ryy	2ryy	2ryy	4r	.	4b-\	8gg\L	8ggg\L	.
.	.	.	.	.	32G/	.	32d/	.	32B-/ 32g	.	.	.	.	.	.	.	.	.	.	.	.	.	.	.	.	.	.	.	.	.	.	.	.
.	.	.	.	.	32G/	.	32d/	.	32B-/ 32g	.	.	.	.	.	.	.	.	.	.	.	.	.	.	.	.	.	.	.	.	.	.	.	.
.	.	.	.	.	32G/	.	32d/	.	32B-/ 32g	.	.	.	.	.	.	.	.	.	.	.	.	.	.	.	.	.	.	.	.	.	.	.	.
.	.	.	.	.	32G/	.	32d/	.	32B-/ 32g	.	8GG/	-bis	.	8d\	-bis	.	8g\	-bis	.	8b-\	-bis	.	.	.	.	.	.	.	.	.	8dd\J	8ddd\J	.
.	.	.	.	.	32G/	.	32d/	.	32B-/ 32g	.	.	.	.	.	.	.	.	.	.	.	.	.	.	.	.	.	.	.	.	.	.	.	.
.	.	.	.	.	32G/	.	32d/	.	32B-/ 32g	.	.	.	.	.	.	.	.	.	.	.	.	.	.	.	.	.	.	.	.	.	.	.	.
.	.	.	.	.	32G/	.	32d/	.	32B-/ 32g	.	.	.	.	.	.	.	.	.	.	.	.	.	.	.	.	.	.	.	.	.	.	.	.
.	.	.	.	.	32G/	.	32d/	.	32B-/ 32g	.	4r	.	.	4r	.	.	4r	.	.	4r	.	.	.	.	.	.	.	8d\L	.	4r	4r	4r	.
.	.	.	.	.	32G/	.	32d/	.	32B-/ 32g	.	.	.	.	.	.	.	.	.	.	.	.	.	.	.	.	.	.	.	.	.	.	.	.
.	.	.	.	.	32G/	.	32d/	.	32B-/ 32g	.	.	.	.	.	.	.	.	.	.	.	.	.	.	.	.	.	.	.	.	.	.	.	.
.	.	.	.	.	32G/	.	32d/	.	32B-/ 32g	.	.	.	.	.	.	.	.	.	.	.	.	.	.	.	.	.	.	.	.	.	.	.	.
.	.	.	.	.	32G/	.	32d/	.	32B-/ 32g	.	.	.	.	.	.	.	.	.	.	.	.	.	.	.	.	.	.	8B-\J	.	.	.	.	.
.	.	.	.	.	32G/	.	32d/	.	32B-/ 32g	.	.	.	.	.	.	.	.	.	.	.	.	.	.	.	.	.	.	.	.	.	.	.	.
.	.	.	.	.	32G/	.	32d/	.	32B-/ 32g	.	.	.	.	.	.	.	.	.	.	.	.	.	.	.	.	.	.	.	.	.	.	.	.
.	.	.	.	.	32G/JJJ	.	32d/JJJ	.	32B-/ 32gJJJ	.	.	.	.	.	.	.	.	.	.	.	.	.	.	.	.	.	.	.	.	.	.	.	.
*	*	*	*	*	*	*	*Xrep	*	*	*	*	*	*	*	*	*	*	*	*	*	*	*	*	*	*	*	*	*	*	*	*	*	*
!LO:LB:g=original	!	!	!	!	!	!	!	!	!	!	!	!	!	!	!	!	!	!	!	!	!	!	!	!	!	!	!	!	!	!	!	!	!
=46	=46	=46	=46	=46	=46	=46	=46	=46	=46	=46	=46	=46	=46	=46	=46	=46	=46	=46	=46	=46	=46	=46	=46	=46	=46	=46	=46	=46	=46	=46	=46	=46	=46
!	!	!	!	!	!	!	!	!	!	!	!	!	!	!	!	!	!LO:SIC:s=Sub	!	!	!	!	!	!	!	!	!	!	!	!	!	!	!	!
8GG/L	.	.	8G\L	.	32d\LLL	.	32d/ 32fLLL	.	32Bn/ 32gLLL	.	4G\	sub	.	4d\	Sub	.	4g\	Su	.	4bn\	Sub	.	2ryy	2ryy	2ryy	2ryy	2ryy	4G\	.	2r	2r	2r	.
.	.	.	.	.	32d\	.	32d/ 32f	.	32Bn/ 32g	.	.	.	.	.	.	.	.	.	.	.	.	.	.	.	.	.	.	.	.	.	.	.	.
.	.	.	.	.	32d\	.	32d/ 32f	.	32Bn/ 32g	.	.	.	.	.	.	.	.	.	.	.	.	.	.	.	.	.	.	.	.	.	.	.	.
.	.	.	.	.	32d\	.	32d/ 32f	.	32Bn/ 32g	.	.	.	.	.	.	.	.	.	.	.	.	.	.	.	.	.	.	.	.	.	.	.	.
16.BBn/L	.	.	16.BBn\L	.	32d\	.	32d/ 32f	.	32Bn/ 32g	.	.	.	.	.	.	.	.	.	.	.	.	.	.	.	.	.	.	.	.	.	.	.	.
.	.	.	.	.	32d\	.	32d/ 32f	.	32Bn/ 32g	.	.	.	.	.	.	.	.	.	.	.	.	.	.	.	.	.	.	.	.	.	.	.	.
.	.	.	.	.	32d\	.	32d/ 32f	.	32Bn/ 32g	.	.	.	.	.	.	.	.	.	.	.	.	.	.	.	.	.	.	.	.	.	.	.	.
32D/JJk	.	.	32D\JJk	.	32d\	.	32d/ 32fJJJ	.	32Bn/ 32g	.	.	.	.	.	.	.	.	.	.	.	.	.	.	.	.	.	.	.	.	.	.	.	.
8.G\L	.	.	8.G\L	.	32d\	.	32d/ 32fLLL	.	32Bn/ 32g	.	8F\	pon-	.	8d\	pon-	.	8g\	pon-	.	8b\	pon-	.	.	.	.	.	.	4r	.	.	.	.	.
.	.	.	.	.	32d\	.	32d/ 32f	.	32Bn/ 32g	.	.	.	.	.	.	.	.	.	.	.	.	.	.	.	.	.	.	.	.	.	.	.	.
.	.	.	.	.	32d\	.	32d/ 32f	.	32Bn/ 32g	.	.	.	.	.	.	.	.	.	.	.	.	.	.	.	.	.	.	.	.	.	.	.	.
.	.	.	.	.	32d\	.	32d/ 32f	.	32Bn/ 32g	.	.	.	.	.	.	.	.	.	.	.	.	.	.	.	.	.	.	.	.	.	.	.	.
.	.	.	.	.	32d\	.	32d/ 32f	.	32Bn/ 32g	.	8D\	-ti-	.	8d\	-ti-	.	8g\	-ti-	.	8b\	-ti-	.	.	.	.	.	.	.	.	.	.	.	.
.	.	.	.	.	32d\	.	32d/ 32f	.	32Bn/ 32g	.	.	.	.	.	.	.	.	.	.	.	.	.	.	.	.	.	.	.	.	.	.	.	.
16F\Jk	.	.	16F\Jk	.	32d\	.	32d/ 32f	.	32Bn/ 32g	.	.	.	.	.	.	.	.	.	.	.	.	.	.	.	.	.	.	.	.	.	.	.	.
.	.	.	.	.	32d\JJJ	.	32d/ 32fJJJ	.	32Bn/ 32gJJJ	.	.	.	.	.	.	.	.	.	.	.	.	.	.	.	.	.	.	.	.	.	.	.	.
!	!	!	!	!	!	!	!	!	!	!	!LO:LB:g=original	!	!	!	!	!	!	!	!	!	!	!	!	!	!	!	!	!	!	!	!	!	!
=47	=47	=47	=47	=47	=47	=47	=47	=47	=47	=47	=47	=47	=47	=47	=47	=47	=47	=47	=47	=47	=47	=47	=47	=47	=47	=47	=47	=47	=47	=47	=47	=47	=47
16.E-\LL	.	.	16.E-\LL	.	32c\LLL	.	32G/ 32e-LLL	.	32c/ 32gLLL	.	4E-\	-o	.	4e-\	-o	.	4g\	-o	.	4cc\	-o	.	2ryy	2ryy	2ryy	2ryy	2ryy	4r	.	4r	4r	4r	.
.	.	.	.	.	32c\	.	32G/ 32e-	.	32c/ 32g	.	.	.	.	.	.	.	.	.	.	.	.	.	.	.	.	.	.	.	.	.	.	.	.
.	.	.	.	.	32c\	.	32G/ 32e-	.	32c/ 32g	.	.	.	.	.	.	.	.	.	.	.	.	.	.	.	.	.	.	.	.	.	.	.	.
32D\JJk	.	.	32D\JJk	.	32c\	.	32G/ 32e-	.	32c/ 32g	.	.	.	.	.	.	.	.	.	.	.	.	.	.	.	.	.	.	.	.	.	.	.	.
8C/	.	.	8C/	.	32c\	.	32G/ 32e-	.	32c/ 32g	.	.	.	.	.	.	.	.	.	.	.	.	.	.	.	.	.	.	.	.	.	.	.	.
.	.	.	.	.	32c\	.	32G/ 32e-	.	32c/ 32g	.	.	.	.	.	.	.	.	.	.	.	.	.	.	.	.	.	.	.	.	.	.	.	.
.	.	.	.	.	32c\	.	32G/ 32e-	.	32c/ 32g	.	.	.	.	.	.	.	.	.	.	.	.	.	.	.	.	.	.	.	.	.	.	.	.
.	.	.	.	.	32c\	.	32G/ 32e-	.	32c/ 32g	.	.	.	.	.	.	.	.	.	.	.	.	.	.	.	.	.	.	.	.	.	.	.	.
4r	.	.	4r	.	32c\	.	32G/ 32e-	.	32c/ 32g	.	4r	.	.	4r	.	.	4r	.	.	4r	.	.	.	.	.	.	.	8r	.	8r	8r	8r	.
.	.	.	.	.	32c\	.	32G/ 32e-	.	32c/ 32g	.	.	.	.	.	.	.	.	.	.	.	.	.	.	.	.	.	.	.	.	.	.	.	.
.	.	.	.	.	32c\	.	32G/ 32e-	.	32c/ 32g	.	.	.	.	.	.	.	.	.	.	.	.	.	.	.	.	.	.	.	.	.	.	.	.
.	.	.	.	.	32c\	.	32G/ 32e-	.	32c/ 32g	.	.	.	.	.	.	.	.	.	.	.	.	.	.	.	.	.	.	.	.	.	.	.	.
!	!	!	!	!	!	!	!	!	!	!	!	!	!	!	!	!	!	!	!	!	!	!	!	!	!	!	!	!	!	!	!LO:TX:a:t=Wi//	!	!
.	.	.	.	.	32c\	.	32G/ 32e-	.	32c/ 32g	.	.	.	.	.	.	.	.	.	.	.	.	.	.	.	.	.	.	8c\	.	8cc\	8ee-\	8eee-\	.
.	.	.	.	.	32c\	.	32G/ 32e-	.	32c/ 32g	.	.	.	.	.	.	.	.	.	.	.	.	.	.	.	.	.	.	.	.	.	.	.	.
.	.	.	.	.	32c\	.	32G/ 32e-	.	32c/ 32g	.	.	.	.	.	.	.	.	.	.	.	.	.	.	.	.	.	.	.	.	.	.	.	.
.	.	.	.	.	32c\JJJ	.	32G/ 32e-JJJ	.	32c/ 32gJJJ	.	.	.	.	.	.	.	.	.	.	.	.	.	.	.	.	.	.	.	.	.	.	.	.
=48	=48	=48	=48	=48	=48	=48	=48	=48	=48	=48	=48	=48	=48	=48	=48	=48	=48	=48	=48	=48	=48	=48	=48	=48	=48	=48	=48	=48	=48	=48	=48	=48	=48
!	!	!	!	!	!	!	!	!	!	!	!	!	!	!	!	!	!	!	!	!	!	!	!	!	!	!	!	!	!	!	!LO:N:vis=4	!	!
!	!	!	!	!	!	!	!	!	!	!	!	!	!	!	!	!	!	!	!	!	!	!	!	!	!	!	!	!	!	!	!LO:TX:t=P:problem=rozpisane vide	!	!
!	!	!	!	!	!	!	!	!	!	!	!	!	!	!	!	!	!	!	!	!	!	!	!	!	!	!	!	!	!	!	!LO:TX:a:t=De//	!	!
8FF/L	.	.	8E-\L	.	32A/LLL	.	32c/ 32e-LLL	.	32A/ 32fLLL	.	4E-\	pi-	.	4f\	Pi-	.	4a\	Pi-	.	4cc\	Pi-	.	2ryy	2ryy	2ryy	2ryy	2ryy	8e-\	.	8a\	8cc\	8ccc\	.
.	.	.	.	.	32A/	.	32c/ 32e-	.	32A/ 32f	.	.	.	.	.	.	.	.	.	.	.	.	.	.	.	.	.	.	.	.	.	.	.	.
.	.	.	.	.	32A/	.	32c/ 32e-	.	32A/ 32f	.	.	.	.	.	.	.	.	.	.	.	.	.	.	.	.	.	.	.	.	.	.	.	.
.	.	.	.	.	32A/	.	32c/ 32e-	.	32A/ 32f	.	.	.	.	.	.	.	.	.	.	.	.	.	.	.	.	.	.	.	.	.	.	.	.
16.AA/L	.	.	16.AA\L	.	32A/	.	32c/ 32e-	.	32A/ 32f	.	.	.	.	.	.	.	.	.	.	.	.	.	.	.	.	.	.	8r	.	8r	8r	8r	.
.	.	.	.	.	32A/	.	32c/ 32e-	.	32A/ 32f	.	.	.	.	.	.	.	.	.	.	.	.	.	.	.	.	.	.	.	.	.	.	.	.
.	.	.	.	.	32A/	.	32c/ 32e-	.	32A/ 32f	.	.	.	.	.	.	.	.	.	.	.	.	.	.	.	.	.	.	.	.	.	.	.	.
32C/JJk	.	.	32C\JJk	.	32A/	.	32c/ 32e-	.	32A/ 32f	.	.	.	.	.	.	.	.	.	.	.	.	.	.	.	.	.	.	.	.	.	.	.	.
8.F\L	.	.	8.F\L	.	32A/	.	32c/ 32e-	.	32A/ 32f	.	4F\	-la-	.	4f\	-la-	.	4a\	-la-	.	4cc\	-la-	.	.	.	.	.	.	4r	.	4r	4r	4r	.
.	.	.	.	.	32A/	.	32c/ 32e-	.	32A/ 32f	.	.	.	.	.	.	.	.	.	.	.	.	.	.	.	.	.	.	.	.	.	.	.	.
.	.	.	.	.	32A/	.	32c/ 32e-	.	32A/ 32f	.	.	.	.	.	.	.	.	.	.	.	.	.	.	.	.	.	.	.	.	.	.	.	.
.	.	.	.	.	32A/	.	32c/ 32e-	.	32A/ 32f	.	.	.	.	.	.	.	.	.	.	.	.	.	.	.	.	.	.	.	.	.	.	.	.
.	.	.	.	.	32A/	.	32c/ 32e-	.	32A/ 32f	.	.	.	.	.	.	.	.	.	.	.	.	.	.	.	.	.	.	.	.	.	.	.	.
.	.	.	.	.	32A/	.	32c/ 32e-	.	32A/ 32f	.	.	.	.	.	.	.	.	.	.	.	.	.	.	.	.	.	.	.	.	.	.	.	.
16E-\Jk	.	.	16E-\Jk	.	32A/	.	32c/ 32e-	.	32A/ 32f	.	.	.	.	.	.	.	.	.	.	.	.	.	.	.	.	.	.	.	.	.	.	.	.
.	.	.	.	.	32A/JJJ	.	32c/ 32e-JJJ	.	32A/ 32fJJJ	.	.	.	.	.	.	.	.	.	.	.	.	.	.	.	.	.	.	.	.	.	.	.	.
!	!	!	!LO:LB:g=original	!	!	!	!	!	!	!	!	!	!	!	!	!	!	!	!	!	!	!	!	!	!	!	!	!	!	!	!	!LO:LB:g=original	!
=49	=49	=49	=49	=49	=49	=49	=49	=49	=49	=49	=49	=49	=49	=49	=49	=49	=49	=49	=49	=49	=49	=49	=49	=49	=49	=49	=49	=49	=49	=49	=49	=49	=49
!	!	!	!	!	!	!	!	!	!LO:TX:t=P:problem= 32f połączone jedną belką	!	!	!	!	!	!	!	!	!	!	!	!	!	!	!	!	!	!	!	!	!	!	!	!
*	*	*	*	*	*	*	*	*	*	*	*	*	*	*	*	*	*	*	*	*	*	*	*	*	*	*	*	*	*	*	*	*	*
!	!	!	!	!	!	!LO:HP:b	!	!	!	!	!	!	!	!	!	!	!	!	!	!	!	!	!	!	!	!	!	!	!	!	!	!	!
16.D\LL	.	.	16.D\LL	.	32B-/LLL	<	32d/LLL	.	32f'/LLL	.	4B-\	-to	.	4f\	-to	.	4b-\	-to	.	4dd\	-to	.	2ryy	2ryy	2ryy	2ryy	2ryy	8r	.	8r	8r	8r	.
.	.	.	.	.	32B-/	.	32d/	.	32f'/JJJ	.	.	.	.	.	.	.	.	.	.	.	.	.	.	.	.	.	.	.	.	.	.	.	.
.	.	.	.	.	32B-/	.	32d/	.	32f'/LLL	.	.	.	.	.	.	.	.	.	.	.	.	.	.	.	.	.	.	.	.	.	.	.	.
32C\JJk	.	.	32C\JJk	.	32B-/	.	32d/	.	32f'/JJJ	.	.	.	.	.	.	.	.	.	.	.	.	.	.	.	.	.	.	.	.	.	.	.	.
8BB-/	.	.	8BB-/	.	32B-/	.	32d/	.	32f'/LLL	.	.	.	.	.	.	.	.	.	.	.	.	.	.	.	.	.	.	4d^\	.	(4b-^\	4dd\	4dd^\	.
.	.	.	.	.	32B-/	.	32d/	.	32f'/JJJ	.	.	.	.	.	.	.	.	.	.	.	.	.	.	.	.	.	.	.	.	.	.	.	.
.	.	.	.	.	32B-/	.	32d/	.	32f'/LLL	.	.	.	.	.	.	.	.	.	.	.	.	.	.	.	.	.	.	.	.	.	.	.	.
.	.	.	.	.	32B-/JJJ	.	32d/JJJ	.	32f'/JJJ	.	.	.	.	.	.	.	.	.	.	.	.	.	.	.	.	.	.	.	.	.	.	.	.
*	*	*	*	*	*Xtremolo	*	*Xtremolo	*	*	*	*	*	*	*	*	*	*	*	*	*	*	*	*	*	*	*	*	*	*	*	*	*	*
!	!	!	!	!	!	!	!	!	!LO:TX:t=P:problem= 32f połączone jedną belką	!	!	!	!	!	!	!	!	!	!	!	!	!	!	!	!	!	!	!	!	!	!	!	!
!	!	!	!	!	!	!	!	!LO:HP:b	!	!	!	!	!	!	!	!	!	!	!	!	!	!	!	!	!	!	!	!	!	!	!	!	!
4r	.	.	4r	.	32B-/LLL	.	32d/LLL	<	32f/LLL	.	4r	.	.	4r	.	.	4r	.	.	4r	.	.	.	.	.	.	.	.	.	.	.	.	.
.	.	.	.	.	32B-/	.	32d/	.	32f/JJJ	.	.	.	.	.	.	.	.	.	.	.	.	.	.	.	.	.	.	.	.	.	.	.	.
!	!	!	!	!	!	!	!	!	!	!LO:HP:b	!	!	!	!	!	!	!	!	!	!	!	!	!	!	!	!	!	!	!	!	!	!	!
.	.	.	.	.	32B-/	.	32c/	.	32f/LLL	<	.	.	.	.	.	.	.	.	.	.	.	.	.	.	.	.	.	.	.	.	.	.	.
.	.	.	.	.	32B-/JJJ	.	32c/JJJ	.	32f/JJJ	.	.	.	.	.	.	.	.	.	.	.	.	.	.	.	.	.	.	.	.	.	.	.	.
*	*	*	*	*	*	*	*tremolo	*	*	*	*	*	*	*	*	*	*	*	*	*	*	*	*	*	*	*	*	*	*	*	*	*	*
!	!	!	!	!	!LO:LB:g=original	!	!LO:N:vis=4	!	!	!	!	!	!	!	!	!	!	!	!	!	!	!	!	!	!	!	!	!	!	!	!	!	!
.	.	.	.	.	32A/LLL	[	64c/LLLL	[	32f#X/LLL	.	.	.	.	.	.	.	.	.	.	.	.	.	.	.	.	.	.	8c\	.	8a\)	8cc\	8ff#X\	.
.	.	.	.	.	.	.	64c/	.	.	.	.	.	.	.	.	.	.	.	.	.	.	.	.	.	.	.	.	.	.	.	.	.	.
.	.	.	.	.	32A/	.	64c/	.	32f#X/JJJ	.	.	.	.	.	.	.	.	.	.	.	.	.	.	.	.	.	.	.	.	.	.	.	.
.	.	.	.	.	.	.	64c/	.	.	.	.	.	.	.	.	.	.	.	.	.	.	.	.	.	.	.	.	.	.	.	.	.	.
.	.	.	.	.	32A/	.	64c/	.	32f#/LLL	[	.	.	.	.	.	.	.	.	.	.	.	.	.	.	.	.	.	.	.	.	.	.	.
.	.	.	.	.	.	.	64c/	.	.	.	.	.	.	.	.	.	.	.	.	.	.	.	.	.	.	.	.	.	.	.	.	.	.
.	.	.	.	.	32A/JJJ	.	64c/	.	32f#/JJJ	.	.	.	.	.	.	.	.	.	.	.	.	.	.	.	.	.	.	.	.	.	.	.	.
.	.	.	.	.	.	.	64c/JJJJ	.	.	.	.	.	.	.	.	.	.	.	.	.	.	.	.	.	.	.	.	.	.	.	.	.	.
!	!	!	!	!	!	!	!	!	!	!	!	!	!	!	!	!	!LO:LB:g=original	!	!	!LO:LB:g=original	!	!	!	!	!	!	!	!	!	!	!	!	!
!	!	!	!	!	!	!	!	!	!	!	!	!	!	!	!	!	!	!	!	!	!	!	!	!	!	!	!	!LO:LB:g=original	!	!	!	!	!
=50	=50	=50	=50||:	=50	=50	=50	=50	=50	=50	=50	=50	=50	=50	=50	=50	=50	=50	=50	=50	=50	=50	=50	=50	=50	=50	=50	=50	=50	=50	=50	=50	=50	=50
*	*	*	*	*	*tremolo	*	*	*	*	*	*	*	*	*	*	*	*	*	*	*	*	*	*	*	*	*	*	*	*	*	*	*	*
8GG/	.	.	8G\	.	32G/LLL	.	32B-/ 32dLLL	.	32g/LLL	.	4BB-/	paſ-	.	4B-\	pas-	.	4g\	pas-	.	4dd\	pas-	.	2ryy	2ryy	2ryy	2ryy	2ryy	8B-\L	.	8g\	8b-\	8gg\	.
.	.	.	.	.	32G/	.	32B-/ 32d	.	32g/	.	.	.	.	.	.	.	.	.	.	.	.	.	.	.	.	.	.	.	.	.	.	.	.
.	.	.	.	.	32G/	.	32B-/ 32d	.	32g/	.	.	.	.	.	.	.	.	.	.	.	.	.	.	.	.	.	.	.	.	.	.	.	.
.	.	.	.	.	32G/	.	32B-/ 32d	.	32g/	.	.	.	.	.	.	.	.	.	.	.	.	.	.	.	.	.	.	.	.	.	.	.	.
!	!	!	!LO:TX:a:i:t=pizzi	!	!	!	!	!	!	!	!	!	!	!	!	!	!	!	!	!	!	!	!	!	!	!	!	!	!	!	!	!	!
8r	.	.	8r	.	32G/	.	32B-/ 32d	.	32g/	.	.	.	.	.	.	.	.	.	.	.	.	.	.	.	.	.	.	8GG/J	.	8r	8r	8r	.
.	.	.	.	.	32G/	.	32B-/ 32d	.	32g/	.	.	.	.	.	.	.	.	.	.	.	.	.	.	.	.	.	.	.	.	.	.	.	.
.	.	.	.	.	32G/	.	32B-/ 32d	.	32g/	.	.	.	.	.	.	.	.	.	.	.	.	.	.	.	.	.	.	.	.	.	.	.	.
.	.	.	.	.	32G/	.	32B-/ 32d	.	32g/JJJ	.	.	.	.	.	.	.	.	.	.	.	.	.	.	.	.	.	.	.	.	.	.	.	.
4r	.	.	4r	.	32G/	.	32B-/ 32d	.	32g/LLL	.	8BB-/	-sus	.	8d\	-sus	.	8g\	-sus	.	8b-\	-sus	.	.	.	.	.	.	8r	.	8gg\	8bb-\	8bb-\	.
.	.	.	.	.	32G/	.	32B-/ 32d	.	32g/	.	.	.	.	.	.	.	.	.	.	.	.	.	.	.	.	.	.	.	.	.	.	.	.
.	.	.	.	.	32G/	.	32B-/ 32d	.	32g/	.	.	.	.	.	.	.	.	.	.	.	.	.	.	.	.	.	.	.	.	.	.	.	.
.	.	.	.	.	32G/	.	32B-/ 32d	.	32g/	.	.	.	.	.	.	.	.	.	.	.	.	.	.	.	.	.	.	.	.	.	.	.	.
.	.	.	.	.	32G/	.	32B-/ 32d	.	32g/	.	8r	.	.	8r	.	.	8r	.	.	8r	.	.	.	.	.	.	.	8B-\	.	8r	8r	8r	.
.	.	.	.	.	32G/	.	32B-/ 32d	.	32g/	.	.	.	.	.	.	.	.	.	.	.	.	.	.	.	.	.	.	.	.	.	.	.	.
.	.	.	.	.	32G/	.	32B-/ 32d	.	32g/	.	.	.	.	.	.	.	.	.	.	.	.	.	.	.	.	.	.	.	.	.	.	.	.
.	.	.	.	.	32G/JJJ	.	32B-/ 32dJJJ	.	32g/JJJ	.	.	.	.	.	.	.	.	.	.	.	.	.	.	.	.	.	.	.	.	.	.	.	.
!LO:LB:g=original	!	!	!	!	!	!	!	!	!	!	!	!	!	!LO:LB:g=original	!	!	!	!	!	!	!	!	!	!	!	!	!	!	!	!	!	!	!
=51	=51	=51	=51	=51	=51	=51	=51	=51	=51	=51	=51	=51	=51	=51	=51	=51	=51	=51	=51	=51	=51	=51	=51	=51	=51	=51	=51	=51	=51	=51	=51	=51	=51
*	*	*	*	*	*	*	*	*	*	*	*	*ij	*	*	*ij	*	*	*ij	*	*	*ij	*	*	*	*	*	*	*	*	*	*	*	*
8C/	.	.	8E-\	.	32c\LLL	.	32c/ 32e-LLL	.	32g/LLL	.	4E-\	paſ-	.	4c\	pas-	.	4g\	pas-	.	4ee-\	pas-	.	2ryy	2ryy	2ryy	2ryy	2ryy	8r	.	4r	4r	4r	.
.	.	.	.	.	32c\	.	32c/ 32e-	.	32g/	.	.	.	.	.	.	.	.	.	.	.	.	.	.	.	.	.	.	.	.	.	.	.	.
.	.	.	.	.	32c\	.	32c/ 32e-	.	32g/	.	.	.	.	.	.	.	.	.	.	.	.	.	.	.	.	.	.	.	.	.	.	.	.
.	.	.	.	.	32c\	.	32c/ 32e-	.	32g/	.	.	.	.	.	.	.	.	.	.	.	.	.	.	.	.	.	.	.	.	.	.	.	.
8r	.	.	8r	.	32c\	.	32c/ 32e-	.	32g/	.	.	.	.	.	.	.	.	.	.	.	.	.	.	.	.	.	.	8c\	.	.	.	.	.
.	.	.	.	.	32c\	.	32c/ 32e-	.	32g/	.	.	.	.	.	.	.	.	.	.	.	.	.	.	.	.	.	.	.	.	.	.	.	.
.	.	.	.	.	32c\	.	32c/ 32e-	.	32g/	.	.	.	.	.	.	.	.	.	.	.	.	.	.	.	.	.	.	.	.	.	.	.	.
.	.	.	.	.	32c\	.	32c/ 32e-	.	32g/JJJ	.	.	.	.	.	.	.	.	.	.	.	.	.	.	.	.	.	.	.	.	.	.	.	.
4r	.	.	4r	.	32c\	.	32c/ 32e-	.	32g/LLL	.	8E-\	-sus	.	8e-\	-sus	.	8g\	-sus	.	8cc\	-sus	.	.	.	.	.	.	8r	.	8ee-\	8gg\	8ccc\	.
.	.	.	.	.	32c\	.	32c/ 32e-	.	32g/	.	.	.	.	.	.	.	.	.	.	.	.	.	.	.	.	.	.	.	.	.	.	.	.
.	.	.	.	.	32c\	.	32c/ 32e-	.	32g/	.	.	.	.	.	.	.	.	.	.	.	.	.	.	.	.	.	.	.	.	.	.	.	.
.	.	.	.	.	32c\	.	32c/ 32e-	.	32g/	.	.	.	.	.	.	.	.	.	.	.	.	.	.	.	.	.	.	.	.	.	.	.	.
.	.	.	.	.	32c\	.	32c/ 32e-	.	32g/	.	8r	.	.	8r	.	.	8r	.	.	8r	.	.	.	.	.	.	.	8e-\	.	8r	8r	8r	.
.	.	.	.	.	32c\	.	32c/ 32e-	.	32g/	.	.	.	.	.	.	.	.	.	.	.	.	.	.	.	.	.	.	.	.	.	.	.	.
.	.	.	.	.	32c\	.	32c/ 32e-	.	32g/	.	.	.	.	.	.	.	.	.	.	.	.	.	.	.	.	.	.	.	.	.	.	.	.
.	.	.	.	.	32c\JJJ	.	32c/ 32e-JJJ	.	32g/JJJ	.	.	.	.	.	.	.	.	.	.	.	.	.	.	.	.	.	.	.	.	.	.	.	.
*	*	*	*	*	*	*	*	*	*	*	*	*Xij	*	*	*Xij	*	*	*Xij	*	*	*Xij	*	*	*	*	*	*	*	*	*	*	*	*
=52	=52	=52	=52	=52	=52	=52	=52	=52	=52	=52	=52	=52	=52	=52	=52	=52	=52	=52	=52	=52	=52	=52	=52	=52	=52	=52	=52	=52	=52	=52	=52	=52	=52
8D\	.	.	8D\	.	32d\LLL	.	32B-/ 32dLLL	.	32g/LLL	.	4D\	Et	.	4B-\	et	.	4g\	et	.	4dd\	et	.	2ryy	2ryy	2ryy	2ryy	2ryy	8r	.	4r	4r	4r	.
.	.	.	.	.	32d\	.	32B-/ 32d	.	32g/	.	.	.	.	.	.	.	.	.	.	.	.	.	.	.	.	.	.	.	.	.	.	.	.
.	.	.	.	.	32d\	.	32B-/ 32d	.	32g/	.	.	.	.	.	.	.	.	.	.	.	.	.	.	.	.	.	.	.	.	.	.	.	.
.	.	.	.	.	32d\	.	32B-/ 32d	.	32g/	.	.	.	.	.	.	.	.	.	.	.	.	.	.	.	.	.	.	.	.	.	.	.	.
8r	.	.	8r	.	32d\	.	32B-/ 32d	.	32g/	.	.	.	.	.	.	.	.	.	.	.	.	.	.	.	.	.	.	8d\	.	.	.	.	.
.	.	.	.	.	32d\	.	32B-/ 32d	.	32g/	.	.	.	.	.	.	.	.	.	.	.	.	.	.	.	.	.	.	.	.	.	.	.	.
.	.	.	.	.	32d\	.	32B-/ 32d	.	32g/	.	.	.	.	.	.	.	.	.	.	.	.	.	.	.	.	.	.	.	.	.	.	.	.
.	.	.	.	.	32d\	.	32B-/ 32d	.	32g/JJJ	.	.	.	.	.	.	.	.	.	.	.	.	.	.	.	.	.	.	.	.	.	.	.	.
!	!	!	!	!	!	!	!	!	!	!	!	!	!	!	!	!	!	!	!	!	!	!	!	!	!	!	!	!	!	!	!LO:N:vis=4	!	!
4r	.	.	4r	.	32d\	.	32B-/ 32d	.	32g/LLL	.	4D\	se-	.	4B-\	se-	.	4g\	se-	.	4dd\	se-	.	.	.	.	.	.	8r	.	8b-\	8dd\	8gg\	.
.	.	.	.	.	32d\	.	32B-/ 32d	.	32g/	.	.	.	.	.	.	.	.	.	.	.	.	.	.	.	.	.	.	.	.	.	.	.	.
.	.	.	.	.	32d\	.	32B-/ 32d	.	32g/	.	.	.	.	.	.	.	.	.	.	.	.	.	.	.	.	.	.	.	.	.	.	.	.
.	.	.	.	.	32d\	.	32B-/ 32d	.	32g/	.	.	.	.	.	.	.	.	.	.	.	.	.	.	.	.	.	.	.	.	.	.	.	.
.	.	.	.	.	32d\	.	32B-/ 32d	.	32g/	.	.	.	.	.	.	.	.	.	.	.	.	.	.	.	.	.	.	8d\	.	8r	8r	8r	.
.	.	.	.	.	32d\	.	32B-/ 32d	.	32g/	.	.	.	.	.	.	.	.	.	.	.	.	.	.	.	.	.	.	.	.	.	.	.	.
.	.	.	.	.	32d\	.	32B-/ 32d	.	32g/	.	.	.	.	.	.	.	.	.	.	.	.	.	.	.	.	.	.	.	.	.	.	.	.
.	.	.	.	.	32d\JJJ	.	32B-/ 32dJJJ	.	32g/JJJ	.	.	.	.	.	.	.	.	.	.	.	.	.	.	.	.	.	.	.	.	.	.	.	.
=53	=53	=53	=53	=53	=53	=53	=53	=53	=53	=53	=53	=53	=53	=53	=53	=53	=53	=53	=53	=53	=53	=53	=53	=53	=53	=53	=53	=53	=53	=53	=53	=53	=53
!	!	!	!	!	!	!	!	!	!	!	!LO:SIC:s=pul-	!	!	!	!	!	!	!	!	!	!	!	!	!	!	!	!	!	!	!	!	!	!
8D\	.	.	8D\	.	32d\LLL	.	32c/LLL	.	32A/ 32f#XLLL	.	4D\	-put-	.	4c\	-pul-	.	4a\	-pul-	.	4dd\	-pul-	.	2ryy	2ryy	2ryy	2ryy	2ryy	8r	.	4r	4r	4r	.
.	.	.	.	.	32d\	.	32c/	.	32A/ 32f#X	.	.	.	.	.	.	.	.	.	.	.	.	.	.	.	.	.	.	.	.	.	.	.	.
.	.	.	.	.	32d\	.	32c/	.	32A/ 32f#X	.	.	.	.	.	.	.	.	.	.	.	.	.	.	.	.	.	.	.	.	.	.	.	.
.	.	.	.	.	32d\	.	32c/	.	32A/ 32f#X	.	.	.	.	.	.	.	.	.	.	.	.	.	.	.	.	.	.	.	.	.	.	.	.
8r	.	.	8r	.	32d\	.	32c/	.	32A/ 32f#X	.	.	.	.	.	.	.	.	.	.	.	.	.	.	.	.	.	.	8D\	.	.	.	.	.
.	.	.	.	.	32d\	.	32c/	.	32A/ 32f#X	.	.	.	.	.	.	.	.	.	.	.	.	.	.	.	.	.	.	.	.	.	.	.	.
.	.	.	.	.	32d\	.	32c/	.	32A/ 32f#X	.	.	.	.	.	.	.	.	.	.	.	.	.	.	.	.	.	.	.	.	.	.	.	.
.	.	.	.	.	32d\	.	32c/	.	32A/ 32f#X	.	.	.	.	.	.	.	.	.	.	.	.	.	.	.	.	.	.	.	.	.	.	.	.
4r	.	.	4r	.	32d\	.	32c/	.	32A/ 32f#X	.	4C\	-tus	.	4c\	-tus	.	4c\	-tus	.	4f#X/	-tus	.	.	.	.	.	.	8r	.	8a\	8cc\	8ff#X'\	.
.	.	.	.	.	32d\	.	32c/	.	32A/ 32f#X	.	.	.	.	.	.	.	.	.	.	.	.	.	.	.	.	.	.	.	.	.	.	.	.
.	.	.	.	.	32d\	.	32c/	.	32A/ 32f#X	.	.	.	.	.	.	.	.	.	.	.	.	.	.	.	.	.	.	.	.	.	.	.	.
.	.	.	.	.	32d\	.	32c/	.	32A/ 32f#X	.	.	.	.	.	.	.	.	.	.	.	.	.	.	.	.	.	.	.	.	.	.	.	.
.	.	.	.	.	32d\	.	32c/	.	32A/ 32f#X	.	.	.	.	.	.	.	.	.	.	.	.	.	.	.	.	.	.	8D\	.	8r	8r	8r	.
.	.	.	.	.	32d\	.	32c/	.	32A/ 32f#X	.	.	.	.	.	.	.	.	.	.	.	.	.	.	.	.	.	.	.	.	.	.	.	.
.	.	.	.	.	32d\	.	32c/	.	32A/ 32f#X	.	.	.	.	.	.	.	.	.	.	.	.	.	.	.	.	.	.	.	.	.	.	.	.
.	.	.	.	.	32d\JJJ	.	32c/JJJ	.	32A/ 32f#XJJJ	.	.	.	.	.	.	.	.	.	.	.	.	.	.	.	.	.	.	.	.	.	.	.	.
!	!	!	!	!	!	!	!LO:LB:g=original	!	!	!	!	!	!	!	!	!	!	!	!	!	!	!	!	!	!	!	!	!	!	!	!	!	!
=54	=54	=54	=54:||	=54	=54	=54	=54	=54	=54	=54	=54	=54	=54	=54	=54	=54	=54	=54	=54	=54	=54	=54	=54	=54	=54	=54	=54	=54	=54	=54	=54	=54	=54
!	!	!	!LO:TX:t=P:problem=repetycja 4t	!	!	!	!	!	!	!	!	!	!	!	!	!	!	!	!	!	!	!	!	!	!	!	!	!	!	!	!	!	!
8G\	.	.	8G\yy	.	32G/LLL	.	32B-/ 32dLLL	.	32B-/ 32gLLL	.	4BB-/	est	.	4d\	est	.	4B-/	est	.	4g/	est	.	2ryy	2ryy	2ryy	2ryy	2ryy	8r	.	4r	4r	4r	.
.	.	.	.	.	32G/	.	32B-/ 32d	.	32B-/ 32g	.	.	.	.	.	.	.	.	.	.	.	.	.	.	.	.	.	.	.	.	.	.	.	.
.	.	.	.	.	32G/	.	32B-/ 32d	.	32B-/ 32g	.	.	.	.	.	.	.	.	.	.	.	.	.	.	.	.	.	.	.	.	.	.	.	.
.	.	.	.	.	32G/	.	32B-/ 32d	.	32B-/ 32g	.	.	.	.	.	.	.	.	.	.	.	.	.	.	.	.	.	.	.	.	.	.	.	.
8r	.	.	8ryy	.	32G/	.	32B-/ 32d	.	32B-/ 32g	.	.	.	.	.	.	.	.	.	.	.	.	.	.	.	.	.	.	8G\	.	.	.	.	.
.	.	.	.	.	32G/	.	32B-/ 32d	.	32B-/ 32g	.	.	.	.	.	.	.	.	.	.	.	.	.	.	.	.	.	.	.	.	.	.	.	.
.	.	.	.	.	32G/	.	32B-/ 32d	.	32B-/ 32g	.	.	.	.	.	.	.	.	.	.	.	.	.	.	.	.	.	.	.	.	.	.	.	.
.	.	.	.	.	32G/	.	32B-/ 32d	.	32B-/ 32g	.	.	.	.	.	.	.	.	.	.	.	.	.	.	.	.	.	.	.	.	.	.	.	.
4r	.	.	4ryy	.	32G/	.	32B-/ 32d	.	32B-/ 32g	.	4r	.	.	4r	.	.	4r	.	.	4r	.	.	.	.	.	.	.	8r	.	8gg\	8bb-\	8ddd'\	.
.	.	.	.	.	32G/	.	32B-/ 32d	.	32B-/ 32g	.	.	.	.	.	.	.	.	.	.	.	.	.	.	.	.	.	.	.	.	.	.	.	.
.	.	.	.	.	32G/	.	32B-/ 32d	.	32B-/ 32g	.	.	.	.	.	.	.	.	.	.	.	.	.	.	.	.	.	.	.	.	.	.	.	.
.	.	.	.	.	32G/	.	32B-/ 32d	.	32B-/ 32g	.	.	.	.	.	.	.	.	.	.	.	.	.	.	.	.	.	.	.	.	.	.	.	.
.	.	.	.	.	32G/	.	32B-/ 32d	.	32B-/ 32g	.	.	.	.	.	.	.	.	.	.	.	.	.	.	.	.	.	.	8B-\	.	8r	8r	8r	.
.	.	.	.	.	32G/	.	32B-/ 32d	.	32B-/ 32g	.	.	.	.	.	.	.	.	.	.	.	.	.	.	.	.	.	.	.	.	.	.	.	.
.	.	.	.	.	32G/	.	32B-/ 32d	.	32B-/ 32g	.	.	.	.	.	.	.	.	.	.	.	.	.	.	.	.	.	.	.	.	.	.	.	.
.	.	.	.	.	32G/JJJ	.	32B-/ 32dJJJ	.	32B-/ 32gJJJ	.	.	.	.	.	.	.	.	.	.	.	.	.	.	.	.	.	.	.	.	.	.	.	.
!	!	!	!	!	!	!	!	!	!	!	!	!	!	!	!	!	!	!	!	!	!	!	!	!	!	!	!	!	!	!LO:LB:g=original	!	!	!
=55	=55	=55	=55	=55	=55	=55	=55	=55	=55	=55	=55	=55	=55	=55	=55	=55	=55	=55	=55	=55	=55	=55	=55	=55	=55	=55	=55	=55	=55	=55	=55	=55	=55
8E-\	.	.	8E-\yy	.	32c\LLL	.	32c/ 32e-LLL	.	32g^>/LLL	.	4C\	Et	.	4c\	et	.	4g\	et	.	4ee-\	et	.	2ryy	2ryy	2ryy	2ryy	2ryy	8r	.	4r	4r	4r	.
.	.	.	.	.	32c\	.	32c/ 32e-	.	32g^>/	.	.	.	.	.	.	.	.	.	.	.	.	.	.	.	.	.	.	.	.	.	.	.	.
.	.	.	.	.	32c\	.	32c/ 32e-	.	32g^>/	.	.	.	.	.	.	.	.	.	.	.	.	.	.	.	.	.	.	.	.	.	.	.	.
.	.	.	.	.	32c\	.	32c/ 32e-	.	32g^>/	.	.	.	.	.	.	.	.	.	.	.	.	.	.	.	.	.	.	.	.	.	.	.	.
8r	.	.	8ryy	.	32c\	.	32c/ 32e-	.	32g^>/	.	.	.	.	.	.	.	.	.	.	.	.	.	.	.	.	.	.	8d\	.	.	.	.	.
.	.	.	.	.	32c\	.	32c/ 32e-	.	32g^>/	.	.	.	.	.	.	.	.	.	.	.	.	.	.	.	.	.	.	.	.	.	.	.	.
.	.	.	.	.	32c\	.	32c/ 32e-	.	32g^>/	.	.	.	.	.	.	.	.	.	.	.	.	.	.	.	.	.	.	.	.	.	.	.	.
.	.	.	.	.	32c\	.	32c/ 32e-	.	32g^>/	.	.	.	.	.	.	.	.	.	.	.	.	.	.	.	.	.	.	.	.	.	.	.	.
4r	.	.	4ryy	.	32c\	.	32c/ 32e-	.	32g^>/	.	4E-\	se-	.	4c\	se-	.	4g\	se-	.	4ee-\	se-	.	.	.	.	.	.	8r	.	8gg\	8ccc\	8eee-'\	.
.	.	.	.	.	32c\	.	32c/ 32e-	.	32g^>/	.	.	.	.	.	.	.	.	.	.	.	.	.	.	.	.	.	.	.	.	.	.	.	.
.	.	.	.	.	32c\	.	32c/ 32e-	.	32g^>/	.	.	.	.	.	.	.	.	.	.	.	.	.	.	.	.	.	.	.	.	.	.	.	.
.	.	.	.	.	32c\	.	32c/ 32e-	.	32g^>/	.	.	.	.	.	.	.	.	.	.	.	.	.	.	.	.	.	.	.	.	.	.	.	.
.	.	.	.	.	32c\	.	32c/ 32e-	.	32g^>/	.	.	.	.	.	.	.	.	.	.	.	.	.	.	.	.	.	.	8e-\	.	8r	8r	8r	.
.	.	.	.	.	32c\	.	32c/ 32e-	.	32g^>/	.	.	.	.	.	.	.	.	.	.	.	.	.	.	.	.	.	.	.	.	.	.	.	.
.	.	.	.	.	32c\	.	32c/ 32e-	.	32g^>/	.	.	.	.	.	.	.	.	.	.	.	.	.	.	.	.	.	.	.	.	.	.	.	.
.	.	.	.	.	32c\JJJ	.	32c/ 32e-JJJ	.	32g^>/JJJ	.	.	.	.	.	.	.	.	.	.	.	.	.	.	.	.	.	.	.	.	.	.	.	.
=56	=56	=56	=56	=56	=56	=56	=56	=56	=56	=56	=56	=56	=56	=56	=56	=56	=56	=56	=56	=56	=56	=56	=56	=56	=56	=56	=56	=56	=56	=56	=56	=56	=56
!	!	!	!	!	!	!	!	!	!	!	!LO:SIC:s=pul-	!	!	! 	!	!	! 	!	!	! 	!	!	!	!	!	!	!	!	!	!	!	!	!
8D\	.	.	8D\yy	.	32G/LLL	.	32d/LLL	.	32G/ 32gLLL	.	2D\	-put-	.	2B-\	-pul-	.	2g\	-pul-	.	2dd\	-pul-	.	2ryy	2ryy	2ryy	2ryy	2ryy	8r	.	4r	4r	4r	.
.	.	.	.	.	32G/	.	32d/	.	32G/ 32g	.	.	.	.	.	.	.	.	.	.	.	.	.	.	.	.	.	.	.	.	.	.	.	.
.	.	.	.	.	32G/	.	32d/	.	32G/ 32g	.	.	.	.	.	.	.	.	.	.	.	.	.	.	.	.	.	.	.	.	.	.	.	.
.	.	.	.	.	32G/	.	32d/	.	32G/ 32g	.	.	.	.	.	.	.	.	.	.	.	.	.	.	.	.	.	.	.	.	.	.	.	.
8r	.	.	8ryy	.	32G/	.	32d/	.	32G/ 32g	.	.	.	.	.	.	.	.	.	.	.	.	.	.	.	.	.	.	8d\L	.	.	.	.	.
.	.	.	.	.	32G/	.	32d/	.	32G/ 32g	.	.	.	.	.	.	.	.	.	.	.	.	.	.	.	.	.	.	.	.	.	.	.	.
.	.	.	.	.	32G/	.	32d/	.	32G/ 32g	.	.	.	.	.	.	.	.	.	.	.	.	.	.	.	.	.	.	.	.	.	.	.	.
.	.	.	.	.	32G/	.	32d/	.	32G/ 32g	.	.	.	.	.	.	.	.	.	.	.	.	.	.	.	.	.	.	.	.	.	.	.	.
4r	.	.	4ryy	.	32G/	.	32d/	.	32G/ 32g	.	.	.	.	.	.	.	.	.	.	.	.	.	.	.	.	.	.	8B-\	.	8gg\	8bb-\	8ddd'\	.
.	.	.	.	.	32G/	.	32d/	.	32G/ 32g	.	.	.	.	.	.	.	.	.	.	.	.	.	.	.	.	.	.	.	.	.	.	.	.
.	.	.	.	.	32G/	.	32d/	.	32G/ 32g	.	.	.	.	.	.	.	.	.	.	.	.	.	.	.	.	.	.	.	.	.	.	.	.
.	.	.	.	.	32G/	.	32d/	.	32G/ 32g	.	.	.	.	.	.	.	.	.	.	.	.	.	.	.	.	.	.	.	.	.	.	.	.
.	.	.	.	.	32G/	.	32d/	.	32G/ 32g	.	.	.	.	.	.	.	.	.	.	.	.	.	.	.	.	.	.	8G\J	.	8r	8r	8r	.
.	.	.	.	.	32G/	.	32d/	.	32G/ 32g	.	.	.	.	.	.	.	.	.	.	.	.	.	.	.	.	.	.	.	.	.	.	.	.
.	.	.	.	.	32G/	.	32d/	.	32G/ 32g	.	.	.	.	.	.	.	.	.	.	.	.	.	.	.	.	.	.	.	.	.	.	.	.
.	.	.	.	.	32G/JJJ	.	32d/JJJ	.	32G/ 32gJJJ	.	.	.	.	.	.	.	.	.	.	.	.	.	.	.	.	.	.	.	.	.	.	.	.
=57	=57	=57	=57	=57	=57	=57	=57	=57	=57	=57	=57	=57	=57	=57	=57	=57	=57	=57	=57	=57	=57	=57	=57	=57	=57	=57	=57	=57	=57	=57	=57	=57	=57
8D\	.	.	8D\yy	.	32c\LLL	.	32c/LLL	.	32A^>/ 32f#XLLL	.	2D\	-tus	.	4.A\	-tus	.	4.f#X\	-tus	.	4.dd\	-tus	.	2ryy	2ryy	2ryy	2ryy	2ryy	8r	.	4r	4r	4r	.
.	.	.	.	.	32c\	.	32c/	.	32A^>/ 32f#X	.	.	.	.	.	.	.	.	.	.	.	.	.	.	.	.	.	.	.	.	.	.	.	.
.	.	.	.	.	32c\	.	32c/	.	32A^>/ 32f#X	.	.	.	.	.	.	.	.	.	.	.	.	.	.	.	.	.	.	.	.	.	.	.	.
.	.	.	.	.	32c\	.	32c/	.	32A^>/ 32f#X	.	.	.	.	.	.	.	.	.	.	.	.	.	.	.	.	.	.	.	.	.	.	.	.
8r	.	.	8ryy	.	32c\	.	32c/	.	32A^>/ 32f#X	.	.	.	.	.	.	.	.	.	.	.	.	.	.	.	.	.	.	8c\L	.	.	.	.	.
.	.	.	.	.	32c\	.	32c/	.	32A^>/ 32f#X	.	.	.	.	.	.	.	.	.	.	.	.	.	.	.	.	.	.	.	.	.	.	.	.
.	.	.	.	.	32c\	.	32c/	.	32A^>/ 32f#X	.	.	.	.	.	.	.	.	.	.	.	.	.	.	.	.	.	.	.	.	.	.	.	.
.	.	.	.	.	32c\	.	32c/	.	32A^>/ 32f#X	.	.	.	.	.	.	.	.	.	.	.	.	.	.	.	.	.	.	.	.	.	.	.	.
4r	.	.	4ryy	.	32c\	.	32c/	.	32A^>/ 32f#X	.	.	.	.	.	.	.	.	.	.	.	.	.	.	.	.	.	.	8A\	.	8ff#X\	8aa\	8ccc'\	.
.	.	.	.	.	32c\	.	32c/	.	32A^>/ 32f#X	.	.	.	.	.	.	.	.	.	.	.	.	.	.	.	.	.	.	.	.	.	.	.	.
.	.	.	.	.	32c\	.	32c/	.	32A^>/ 32f#X	.	.	.	.	.	.	.	.	.	.	.	.	.	.	.	.	.	.	.	.	.	.	.	.
.	.	.	.	.	32c\	.	32c/	.	32A^>/ 32f#X	.	.	.	.	.	.	.	.	.	.	.	.	.	.	.	.	.	.	.	.	.	.	.	.
.	.	.	.	.	32c\	.	32c/	.	32A^>/ 32f#X	.	.	.	.	8d\	.	.	8c\	.	.	8f#X/	.	.	.	.	.	.	.	8F#X\J	.	8r	8r	8r	.
.	.	.	.	.	32c\	.	32c/	.	32A^>/ 32f#X	.	.	.	.	.	.	.	.	.	.	.	.	.	.	.	.	.	.	.	.	.	.	.	.
.	.	.	.	.	32c\	.	32c/	.	32A^>/ 32f#X	.	.	.	.	.	.	.	.	.	.	.	.	.	.	.	.	.	.	.	.	.	.	.	.
.	.	.	.	.	32c\JJJ	.	32c/JJJ	.	32A^>/ 32f#XJJJ	.	.	.	.	.	.	.	.	.	.	.	.	.	.	.	.	.	.	.	.	.	.	.	.
*	*	*	*	*	*	*	*	*	*Xtremolo	*	*	*	*	*	*	*	*	*	*	*	*	*	*	*	*	*	*	*	*	*	*	*	*
*	*	*	*	*	*	*	*Xtremolo	*	*	*	*	*	*	*	*	*	*	*	*	*	*	*	*	*	*	*	*	*	*	*	*	*	*
*	*	*	*	*	*Xtremolo	*	*	*	*	*	*	*	*	*	*	*	*	*	*	*	*	*	*	*	*	*	*	*	*	*	*	*	*
!	!	!	!	!	!	!	!	!	!LO:LB:g=original	!	!	!LO:LB:g=original	!	!	!	!	!	!	!	!LO:LB:g=original	!	!	!	!	!	!	!	!	!	!	!	!LO:LB:g=original	!
=58	=58	=58	=58	=58	=58	=58	=58	=58	=58	=58	=58	=58	=58	=58	=58	=58	=58	=58	=58	=58	=58	=58	=58	=58	=58	=58	=58	=58	=58	=58	=58	=58	=58
!	!	!	!	!	!	!	!	!	!	!	!	!	!	!	!	!	!	!	!	!	!	!	!	!	!	!	!	!	!	!	!	!LO:TX:a:i:t=d&colon;	!
8GG/	.	.	8GG/	.	4G/	.	4d/	.	4B-/ 4g	.	4GG/	est	.	4d\	est	.	4B-/	est	.	4g\	est	.	2ryy	2ryy	2ryy	2ryy	2ryy	8G\	.	8dd\	8gg\	8bb-\	.
8r	.	.	8r	.	.	.	.	.	.	.	.	.	.	.	.	.	.	.	.	.	.	.	.	.	.	.	.	4D^\	.	4b-^\	4dd\	4ddd^\	p
4r	.	.	4r	.	4r	.	4r	.	4r	.	4r	.	.	4r	.	.	4r	.	.	4r	.	.	.	.	.	.	.	.	.	.	.	.	.
!	!	!	!	!	!	!	!	!	!	!	!	!	!	!	!	!	!	!	!	!	!	!	!	!	!	!	!	!	!	!	!LO:TX:a:t=Re//	!	!
.	.	.	.	.	.	.	.	.	.	.	.	.	.	.	.	.	.	.	.	.	.	.	.	.	.	.	.	8F#X\	.	8a\	8cc\	8ccc\	.
!	!	!	!	!	!LO:LB:g=original	!	!	!	!	!	!	!	!	!	!	!	!	!	!	!	!	!	!	!	!	!	!	!	!	!	!LO:LB:g=original	!	!
!	!	!	!	!	!	!	!	!	!	!	!	!	!	!	!	!	!	!	!	!	!	!	!	!	!	!	!	!LO:LB:g=original	!	!	!	!	!
=59	=59	=59	=59	=59	=59	=59	=59	=59	=59	=59	=59	=59	=59	=59	=59	=59	=59	=59	=59	=59	=59	=59	=59	=59	=59	=59	=59	=59	=59	=59	=59	=59	=59
!	!	!	!	!	!LO:TX:a:i:t=dol	!	!	!	!	!	!LO:TX:a:t=5	!	!	!LO:TX:a:t=5	!	!	!	!	!	!LO:TX:a:t=5	!	!	!	!	!	!	!	!	!	!	!	!	!
4G\	.	.	4G\	.	8r	.	8r	.	8r	.	2r	.	.	2r	.	.	2r	.	.	2r	.	.	2ryy	2ryy	2ryy	2ryy	2ryy	4G\	.	8r	8r	(8bb-\L	.
!	!	!	!	!	!	!	!LO:TX:a:i:t=dol	!	!	!	!	!	!	!	!	!	!	!	!	!	!	!	!	!	!	!	!	!	!	!	!	!	!
.	.	.	.	.	8g\L	.	8b-\L	.	(8dd\L	.	.	.	.	.	.	.	.	.	.	.	.	.	.	.	.	.	.	.	.	(8b-\L	(8dd\L	8gg\	.
4r	.	.	4r	.	8f#X\	.	8a\	.	8cc\	.	.	.	.	.	.	.	.	.	.	.	.	.	.	.	.	.	.	4r	.	8a\	8cc\	8ff#X\	.
.	.	.	.	.	8a\J	.	8cc\J	.	8ee-\J)	.	.	.	.	.	.	.	.	.	.	.	.	.	.	.	.	.	.	.	.	8cc\J)	8ee-\J)	8aa\J)	.
=60	=60	=60	=60	=60	=60	=60	=60	=60	=60	=60	=60	=60	=60	=60	=60	=60	=60	=60	=60	=60	=60	=60	=60	=60	=60	=60	=60	=60	=60	=60	=60	=60	=60
4GG/	.	.	4GG/	.	8r	.	8r	.	8r	.	2r	.	.	2r	.	.	2r	.	.	2r	.	.	2ryy	2ryy	2ryy	2ryy	2ryy	4G\	.	8r	8r	8r	.
.	.	.	.	.	8g\L	.	8b-\L	.	(8dd\L	.	.	.	.	.	.	.	.	.	.	.	.	.	.	.	.	.	.	.	.	8b-\L	(8dd\L	4gg^\	.
!	!	!	!	!	!LO:SIC:s=8f#	!	!	!	!	!	!	!	!	!	!	!	!	!	!	!	!	!	!	!	!	!	!	!	!	!	!	!	!
4r	.	.	4r	.	8f\	.	8a\	.	8cc\	.	.	.	.	.	.	.	.	.	.	.	.	.	.	.	.	.	.	4r	.	8a\	8cc\	.	.
.	.	.	.	.	8a\J	.	8cc\J	.	8ee-\J)	.	.	.	.	.	.	.	.	.	.	.	.	.	.	.	.	.	.	.	.	8cc\J	8ee-\J)	8ff#X\	.
=61	=61	=61	=61	=61	=61	=61	=61	=61	=61	=61	=61	=61	=61	=61	=61	=61	=61	=61	=61	=61	=61	=61	=61	=61	=61	=61	=61	=61	=61	=61	=61	=61	=61
!	!	!	!LO:TX:a:i:t=Color	!	!	!	!	!	!	!	!	!	!	!	!	!	!	!	!	!	!	!	!	!	!	!	!	!	!	!	!	!	!
4G\	3_	.	4G\	.	4g\	.	4b-\	.	(4dd\	.	2r	.	.	2r	.	.	2r	.	.	2r	.	.	2ryy	2ryy	2ryy	2ryy	2ryy	4G\	.	8b-\	4dd\	(32gg\LLL	.
!	!	!	!	!	!	!	!	!	!	!	!	!	!	!	!	!	!	!	!	!	!	!	!	!	!	!	!	!	!	!	!	!LO:SIC:s=32ff#	!
.	.	.	.	.	.	.	.	.	.	.	.	.	.	.	.	.	.	.	.	.	.	.	.	.	.	.	.	.	.	.	.	32ff\	.
.	.	.	.	.	.	.	.	.	.	.	.	.	.	.	.	.	.	.	.	.	.	.	.	.	.	.	.	.	.	.	.	32gg\	.
.	.	.	.	.	.	.	.	.	.	.	.	.	.	.	.	.	.	.	.	.	.	.	.	.	.	.	.	.	.	.	.	32aa\JJJ)	.
.	.	.	.	.	.	.	.	.	.	.	.	.	.	.	.	.	.	.	.	.	.	.	.	.	.	.	.	.	.	4eeX\	.	4bb-^\	.
8C#X\L	.	.	8C#X\L	.	4en\	.	4g\	.	4b-\)	.	.	.	.	.	.	.	.	.	.	.	.	.	.	.	.	.	.	8r	.	.	8gg\L	.	.
8En\J	.	.	8En\J	.	.	.	.	.	.	.	.	.	.	.	.	.	.	.	.	.	.	.	.	.	.	.	.	8c\	.	8ee\	8cc#X\J	8ccc#X\	.
!	!	!	!	!	!	!	!	!	!	!	!	!	!	!	!	!	!	!	!	!	!	!	!	!	!	!	!	!	!	!	!LO:LB:g=original	!	!
=62	=62	=62	=62	=62	=62	=62	=62	=62	=62	=62	=62	=62	=62	=62	=62	=62	=62	=62	=62	=62	=62	=62	=62	=62	=62	=62	=62	=62	=62	=62	=62	=62	=62
4D\	#3	.	4D\	.	(4d\	.	4f#X/	.	(4a\	.	2r	.	.	2r	.	.	2r	.	.	2r	.	.	2ryy	2ryy	2ryy	2ryy	2ryy	8d\	.	8ff#X\	8dd\	8ddd\	.
!	!	!	!	!	!	!	!	!	!	!	!	!	!	!	!	!	!	!	!	!	!	!	!	!	!	!	!	!	!	!	!LO:N:vis=4..	!	!
.	.	.	.	.	.	.	.	.	.	.	.	.	.	.	.	.	.	.	.	.	.	.	.	.	.	.	.	(8.e-^\L	.	4cc^\	(8.ee-^\L	(8.eee-\L	.
4D\	.	.	4DD/	.	4f#X\)	.	4a/	.	4cc\)	.	.	.	.	.	.	.	.	.	.	.	.	.	.	.	.	.	.	.	.	.	.	.	.
.	.	.	.	.	.	.	.	.	.	.	.	.	.	.	.	.	.	.	.	.	.	.	.	.	.	.	.	32d\LL	.	.	32dd\LL	32ddd\LL	.
.	.	.	.	.	.	.	.	.	.	.	.	.	.	.	.	.	.	.	.	.	.	.	.	.	.	.	.	32c\JJJ	.	.	32cc\JJJ)	32ccc\JJJ	.
.	.	.	.	.	.	.	.	.	.	.	.	.	.	.	.	.	.	.	.	.	.	.	.	.	.	.	.	32B-\LLL	.	8r	(32b-/LLL	32bb-\LLL	.
.	.	.	.	.	.	.	.	.	.	.	.	.	.	.	.	.	.	.	.	.	.	.	.	.	.	.	.	32A\	.	.	32a/	32aa\	.
.	.	.	.	.	.	.	.	.	.	.	.	.	.	.	.	.	.	.	.	.	.	.	.	.	.	.	.	32G\	.	.	32g/	32gg\	.
.	.	.	.	.	.	.	.	.	.	.	.	.	.	.	.	.	.	.	.	.	.	.	.	.	.	.	.	32F#X\JJJ)	.	.	32f#X/JJJ)	32ff#X\JJJ)	.
=63	=63	=63	=63	=63	=63	=63	=63	=63	=63	=63	=63	=63	=63	=63	=63	=63	=63	=63	=63	=63	=63	=63	=63	=63	=63	=63	=63	=63	=63	=63	=63	=63	=63
8G\L	.	.	8G\L	.	4d\	.	4g/	.	4b-\	.	2r	.	.	2r	.	.	2r	.	.	2r	.	.	2ryy	2ryy	2ryy	2ryy	2ryy	8G\L	.	4B-/	4g/	4gg\	.
8D\	.	.	8D\	.	.	.	.	.	.	.	.	.	.	.	.	.	.	.	.	.	.	.	.	.	.	.	.	8D\	.	.	.	.	.
8GG/J	.	.	8GG\J	.	4r	.	4r	.	4r	.	.	.	.	.	.	.	.	.	.	.	.	.	.	.	.	.	.	8GG/J	.	4r	4r	4r	.
8r	.	.	8r	.	.	.	.	.	.	.	.	.	.	.	.	.	.	.	.	.	.	.	.	.	.	.	.	8r	.	.	.	.	.
==	==	==	==	==	==	==	==	==	==	==	==	==	==	==	==	==	==	==	==	==	==	==	==	==	==	==	==	==	==	==	==	==	==
*-	*-	*-	*-	*-	*-	*-	*-	*-	*-	*-	*-	*-	*-	*-	*-	*-	*-	*-	*-	*-	*-	*-	*-	*-	*-	*-	*-	*-	*-	*-	*-	*-	*-
!!!system-decoration: [(s1,s2,s3,s4)][(s5,s6,s7,s8)][(s9)][(s10,s11,s12,s13)][(s14,s15,s16,s17)]s18
!!!RDF**kern: > = above
!!!RDF**kern: < = below
!!!ENC: Andrzej Borzym
!!!END: 2020-08-06
!!!ENC: Natalia Wrzos
!!!END: 2022-03-11
